(test)
(T1  D=0.2 CR=0 - ZMIN=-0.5 - flat end mill)
G90 G94
G17
G21
G28 G91 Z0
G90

(2D Pocket1)
T1
S700 M3
G54
G0 X4.807 Y-2.586
Z7
Z5
G1 Z2.52 F100
S700
X4.808 Y-2.585 Z2.513
X4.811 Y-2.582 Z2.506
X4.814 Y-2.577 Z2.502
X4.818 Y-2.57 Z2.5
X4.829 Y-2.533 Z2.499
X4.825 Y-2.494 Z2.497
X4.805 Y-2.461 Z2.496
X4.774 Y-2.438 Z2.495
X4.736 Y-2.43 Z2.493
X4.698 Y-2.437 Z2.492
X4.666 Y-2.459 Z2.49
X4.646 Y-2.492 Z2.489
X4.64 Y-2.53 Z2.488
X4.65 Y-2.568 Z2.486
X4.674 Y-2.598 Z2.485
X4.709 Y-2.616 Z2.484
X4.747 Y-2.619 Z2.482
X4.784 Y-2.606 Z2.481
X4.812 Y-2.579 Z2.48
X4.828 Y-2.544 Z2.478
Y-2.505 Z2.477
X4.812 Y-2.47 Z2.475
X4.784 Y-2.443 Z2.474
X4.747 Y-2.431 Z2.473
X4.708 Y-2.433 Z2.471
X4.674 Y-2.452 Z2.47
X4.65 Y-2.482 Z2.469
X4.64 Y-2.519 Z2.467
X4.646 Y-2.558 Z2.466
X4.666 Y-2.591 Z2.465
X4.698 Y-2.612 Z2.463
X4.736 Y-2.62 Z2.462
X4.774 Y-2.611 Z2.46
X4.805 Y-2.588 Z2.459
X4.825 Y-2.555 Z2.458
X4.829 Y-2.516 Z2.456
X4.818 Y-2.479 Z2.455
X4.793 Y-2.45 Z2.454
X4.758 Y-2.433 Z2.452
X4.719 Y-2.431 Z2.451
X4.683 Y-2.445 Z2.45
X4.655 Y-2.472 Z2.448
X4.641 Y-2.508 Z2.447
X4.642 Y-2.547 Z2.445
X4.659 Y-2.582 Z2.444
X4.688 Y-2.608 Z2.443
X4.725 Y-2.619 Z2.441
X4.764 Y-2.615 Z2.44
X4.798 Y-2.596 Z2.439
X4.821 Y-2.565 Z2.437
X4.83 Y-2.527 Z2.436
X4.823 Y-2.489 Z2.435
X4.801 Y-2.457 Z2.433
X4.768 Y-2.436 Z2.432
X4.73 Y-2.43 Z2.43
X4.693 Y-2.44 Z2.429
X4.662 Y-2.463 Z2.428
X4.644 Y-2.498 Z2.426
X4.64 Y-2.536 Z2.425
X4.653 Y-2.573 Z2.424
X4.679 Y-2.602 Z2.422
X4.714 Y-2.618 Z2.421
X4.753 Z2.42
X4.789 Y-2.603 Z2.418
X4.816 Y-2.575 Z2.417
X4.829 Y-2.538 Z2.415
X4.826 Y-2.499 Z2.414
X4.809 Y-2.465 Z2.413
X4.779 Y-2.44 Z2.411
X4.741 Y-2.43 Z2.41
X4.703 Y-2.435 Z2.409
X4.67 Y-2.455 Z2.407
X4.647 Y-2.487 Z2.406
X4.64 Y-2.525 Z2.405
X4.648 Y-2.563 Z2.403
X4.67 Y-2.595 Z2.402
X4.704 Y-2.615 Z2.4
X4.742 Y-2.619 Z2.399
X4.779 Y-2.609 Z2.398
X4.809 Y-2.584 Z2.396
X4.827 Y-2.549 Z2.395
X4.829 Y-2.51 Z2.394
X4.815 Y-2.474 Z2.392
X4.788 Y-2.446 Z2.391
X4.752 Y-2.431 Z2.39
X4.713 Y-2.432 Z2.388
X4.678 Y-2.448 Z2.387
X4.652 Y-2.477 Z2.385
X4.64 Y-2.514 Z2.384
X4.644 Y-2.553 Z2.383
X4.663 Y-2.587 Z2.381
X4.694 Y-2.61 Z2.38
X4.731 Y-2.62 Z2.379
X4.769 Y-2.613 Z2.377
X4.802 Y-2.592 Z2.376
X4.823 Y-2.559 Z2.375
X4.83 Y-2.521 Z2.373
X4.82 Y-2.484 Z2.372
X4.797 Y-2.453 Z2.37
X4.763 Y-2.434 Z2.369
X4.724 Y-2.43 Z2.368
X4.687 Y-2.442 Z2.366
X4.658 Y-2.468 Z2.365
X4.642 Y-2.503 Z2.364
X4.641 Y-2.542 Z2.362
X4.656 Y-2.578 Z2.361
X4.684 Y-2.605 Z2.36
X4.72 Y-2.619 Z2.358
X4.759 Y-2.617 Z2.357
X4.794 Y-2.599 Z2.355
X4.819 Y-2.57 Z2.354
X4.829 Y-2.532 Z2.353
X4.825 Y-2.494 Z2.351
X4.805 Y-2.461 Z2.35
X4.773 Y-2.438 Z2.349
X4.735 Y-2.43 Z2.347
X4.697 Y-2.437 Z2.346
X4.666 Y-2.46 Z2.345
X4.645 Y-2.493 Z2.343
X4.64 Y-2.531 Z2.342
X4.65 Y-2.568 Z2.34
X4.675 Y-2.598 Z2.339
X4.709 Y-2.616 Z2.338
X4.748 Y-2.619 Z2.336
X4.785 Y-2.606 Z2.335
X4.813 Y-2.579 Z2.334
X4.828 Y-2.543 Z2.332
Y-2.504 Z2.331
X4.812 Y-2.469 Z2.33
X4.783 Y-2.443 Z2.328
X4.746 Y-2.43 Z2.327
X4.708 Y-2.434 Z2.325
X4.674 Y-2.452 Z2.324
X4.65 Y-2.482 Z2.323
X4.64 Y-2.52 Z2.321
X4.646 Y-2.558 Z2.32
X4.667 Y-2.591 Z2.319
X4.699 Y-2.613 Z2.317
X4.737 Y-2.62 Z2.316
X4.775 Y-2.611 Z2.315
X4.806 Y-2.588 Z2.313
X4.825 Y-2.554 Z2.312
X4.829 Y-2.515 Z2.31
X4.818 Y-2.478 Z2.309
X4.792 Y-2.449 Z2.308
X4.757 Y-2.432 Z2.306
X4.719 Y-2.431 Z2.305
X4.682 Y-2.445 Z2.304
X4.655 Y-2.473 Z2.302
X4.641 Y-2.509 Z2.301
X4.643 Y-2.548 Z2.3
X4.659 Y-2.583 Z2.298
X4.689 Y-2.608 Z2.297
X4.726 Y-2.619 Z2.295
X4.765 Y-2.615 Z2.294
X4.798 Y-2.595 Z2.293
X4.821 Y-2.564 Z2.291
X4.83 Y-2.526 Z2.29
X4.823 Y-2.488 Z2.289
X4.801 Y-2.456 Z2.287
X4.768 Y-2.436 Z2.286
X4.73 Y-2.43 Z2.285
X4.692 Y-2.44 Z2.283
X4.662 Y-2.464 Z2.282
X4.644 Y-2.498 Z2.28
X4.641 Y-2.537 Z2.279
X4.653 Y-2.574 Z2.278
X4.68 Y-2.602 Z2.276
X4.715 Y-2.618 Z2.275
X4.754 Z2.274
X4.789 Y-2.602 Z2.272
X4.816 Y-2.574 Z2.271
X4.829 Y-2.537 Z2.27
X4.826 Y-2.499 Z2.268
X4.808 Y-2.464 Z2.267
X4.778 Y-2.44 Z2.265
X4.741 Y-2.43 Z2.264
X4.702 Y-2.435 Z2.263
X4.669 Y-2.456 Z2.261
X4.647 Y-2.488 Z2.26
X4.64 Y-2.526 Z2.259
X4.648 Y-2.564 Z2.257
X4.671 Y-2.595 Z2.256
X4.704 Y-2.615 Z2.255
X4.743 Y-2.619 Z2.253
X4.78 Y-2.608 Z2.252
X4.81 Y-2.583 Z2.25
X4.827 Y-2.548 Z2.249
X4.829 Y-2.51 Z2.248
X4.815 Y-2.473 Z2.246
X4.788 Y-2.446 Z2.245
X4.752 Y-2.431 Z2.244
X4.713 Y-2.432 Z2.242
X4.678 Y-2.449 Z2.241
X4.652 Y-2.478 Z2.24
X4.64 Y-2.515 Z2.238
X4.644 Y-2.553 Z2.237
X4.663 Y-2.587 Z2.235
X4.694 Y-2.611 Z2.234
X4.732 Y-2.62 Z2.233
X4.77 Y-2.613 Z2.231
X4.802 Y-2.591 Z2.23
X4.823 Y-2.559 Z2.229
X4.83 Y-2.521 Z2.227
X4.82 Y-2.483 Z2.226
X4.796 Y-2.452 Z2.225
X4.762 Y-2.434 Z2.223
X4.724 Y-2.43 Z2.222
X4.687 Y-2.443 Z2.22
X4.658 Y-2.469 Z2.219
X4.642 Y-2.504 Z2.218
X4.641 Y-2.543 Z2.216
X4.656 Y-2.578 Z2.215
X4.684 Y-2.605 Z2.214
X4.721 Y-2.619 Z2.212
X4.76 Y-2.616 Z2.211
X4.794 Y-2.599 Z2.209
X4.819 Y-2.569 Z2.208
X4.829 Y-2.532 Z2.207
X4.824 Y-2.493 Z2.205
X4.804 Y-2.46 Z2.204
X4.773 Y-2.438 Z2.203
X4.735 Y-2.43 Z2.201
X4.697 Y-2.438 Z2.2
X4.665 Y-2.46 Z2.199
X4.645 Y-2.493 Z2.197
X4.64 Y-2.532 Z2.196
X4.651 Y-2.569 Z2.194
X4.675 Y-2.599 Z2.193
X4.71 Y-2.616 Z2.192
X4.749 Y-2.619 Z2.19
X4.785 Y-2.605 Z2.189
X4.813 Y-2.578 Z2.188
X4.828 Y-2.543 Z2.186
X4.827 Y-2.504 Z2.185
X4.811 Y-2.469 Z2.184
X4.783 Y-2.443 Z2.182
X4.746 Y-2.43 Z2.181
X4.707 Y-2.434 Z2.179
X4.673 Y-2.452 Z2.178
X4.649 Y-2.483 Z2.177
X4.64 Y-2.521 Z2.175
X4.646 Y-2.559 Z2.174
X4.667 Y-2.591 Z2.173
X4.7 Y-2.613 Z2.171
X4.738 Y-2.62 Z2.17
X4.775 Y-2.611 Z2.169
X4.806 Y-2.587 Z2.167
X4.825 Y-2.553 Z2.166
X4.829 Y-2.515 Z2.164
X4.817 Y-2.478 Z2.163
X4.792 Y-2.449 Z2.162
X4.757 Y-2.432 Z2.16
X4.718 Y-2.431 Z2.159
X4.682 Y-2.446 Z2.158
X4.655 Y-2.473 Z2.156
X4.641 Y-2.51 Z2.155
X4.643 Y-2.548 Z2.154
X4.66 Y-2.583 Z2.152
X4.689 Y-2.608 Z2.151
X4.727 Y-2.619 Z2.149
X4.765 Y-2.615 Z2.148
X4.799 Y-2.595 Z2.147
X4.821 Y-2.564 Z2.145
X4.83 Y-2.526 Z2.144
X4.822 Y-2.488 Z2.143
X4.8 Y-2.456 Z2.141
X4.767 Y-2.435 Z2.14
X4.729 Y-2.43 Z2.139
X4.691 Y-2.44 Z2.137
X4.661 Y-2.464 Z2.136
X4.643 Y-2.499 Z2.134
X4.641 Y-2.538 Z2.133
X4.654 Y-2.574 Z2.132
X4.68 Y-2.602 Z2.13
X4.716 Y-2.618 Z2.129
X4.754 Z2.128
X4.79 Y-2.602 Z2.126
X4.816 Y-2.573 Z2.125
X4.829 Y-2.537 Z2.124
X4.826 Y-2.498 Z2.122
X4.808 Y-2.464 Z2.121
X4.777 Y-2.44 Z2.119
X4.74 Y-2.43 Z2.118
X4.702 Y-2.436 Z2.117
X4.669 Y-2.456 Z2.115
X4.647 Y-2.488 Z2.114
X4.64 Y-2.527 Z2.113
X4.648 Y-2.564 Z2.111
X4.671 Y-2.596 Z2.11
X4.705 Y-2.615 Z2.109
X4.744 Y-2.619 Z2.107
X4.781 Y-2.608 Z2.106
X4.81 Y-2.583 Z2.104
X4.827 Y-2.548 Z2.103
X4.828 Y-2.509 Z2.102
X4.814 Y-2.473 Z2.1
X4.787 Y-2.445 Z2.099
X4.751 Y-2.431 Z2.098
X4.712 Y-2.432 Z2.096
X4.677 Y-2.449 Z2.095
X4.652 Y-2.478 Z2.094
X4.64 Y-2.515 Z2.092
X4.644 Y-2.554 Z2.091
X4.664 Y-2.588 Z2.089
X4.695 Y-2.611 Z2.088
X4.732 Y-2.62 Z2.087
X4.771 Y-2.613 Z2.085
X4.803 Y-2.591 Z2.084
X4.824 Y-2.558 Z2.083
X4.83 Y-2.52 Z2.081
X4.82 Y-2.482 Z2.08
X4.796 Y-2.452 Z2.079
X4.762 Y-2.434 Z2.077
X4.723 Y-2.43 Z2.076
X4.686 Y-2.443 Z2.074
X4.658 Y-2.469 Z2.073
X4.642 Y-2.505 Z2.072
Y-2.543 Z2.07
X4.657 Y-2.579 Z2.069
X4.685 Y-2.606 Z2.068
X4.721 Y-2.619 Z2.066
X4.76 Y-2.616 Z2.065
X4.795 Y-2.598 Z2.064
X4.819 Y-2.568 Z2.062
X4.83 Y-2.531 Z2.061
X4.824 Y-2.493 Z2.059
X4.804 Y-2.46 Z2.058
X4.772 Y-2.437 Z2.057
X4.734 Y-2.43 Z2.055
X4.696 Y-2.438 Z2.054
X4.665 Y-2.461 Z2.053
X4.645 Y-2.494 Z2.051
X4.64 Y-2.532 Z2.05
X4.651 Y-2.57 Z2.049
X4.676 Y-2.599 Z2.047
X4.711 Y-2.617 Z2.046
X4.749 Y-2.619 Z2.044
X4.786 Y-2.605 Z2.043
X4.813 Y-2.578 Z2.042
X4.828 Y-2.542 Z2.04
X4.827 Y-2.503 Z2.039
X4.811 Y-2.468 Z2.038
X4.782 Y-2.442 Z2.036
X4.745 Y-2.43 Z2.035
X4.707 Y-2.434 Z2.034
X4.673 Y-2.453 Z2.032
X4.649 Y-2.484 Z2.031
X4.64 Y-2.521 Z2.029
X4.646 Y-2.56 Z2.028
X4.668 Y-2.592 Z2.027
X4.7 Y-2.613 Z2.025
X4.738 Y-2.62 Z2.024
X4.776 Y-2.61 Z2.023
X4.807 Y-2.587 Z2.021
X4.826 Y-2.553 Z2.02
X4.829 Y-2.514 Z2.019
X4.817 Y-2.477 Z2.017
X4.791 Y-2.448 Z2.016
X4.756 Y-2.432 Z2.014
X4.717 Y-2.431 Z2.013
X4.681 Y-2.446 Z2.012
X4.654 Y-2.474 Z2.01
X4.641 Y-2.51 Z2.009
X4.643 Y-2.549 Z2.008
X4.66 Y-2.584 Z2.006
X4.69 Y-2.609 Z2.005
X4.727 Y-2.619 Z2.004
X4.766 Y-2.614 Z2.002
X4.799 Y-2.595 Z2.001
X4.822 Y-2.563 Z1.999
X4.83 Y-2.525 Z1.998
X4.822 Y-2.487 Z1.997
X4.8 Y-2.455 Z1.995
X4.767 Y-2.435 Z1.994
X4.728 Y-2.43 Z1.993
X4.691 Y-2.44 Z1.991
X4.661 Y-2.465 Z1.99
X4.643 Y-2.499 Z1.989
X4.641 Y-2.538 Z1.987
X4.654 Y-2.575 Z1.986
X4.681 Y-2.603 Z1.984
X4.716 Y-2.618 Z1.983
X4.755 Y-2.617 Z1.982
X4.791 Y-2.602 Z1.98
X4.817 Y-2.573 Z1.979
X4.829 Y-2.536 Z1.978
X4.826 Y-2.498 Z1.976
X4.807 Y-2.463 Z1.975
X4.777 Y-2.44 Z1.974
X4.739 Y-2.43 Z1.972
X4.701 Y-2.436 Z1.971
X4.668 Y-2.457 Z1.969
X4.647 Y-2.489 Z1.968
X4.64 Y-2.527 Z1.967
X4.649 Y-2.565 Z1.965
X4.672 Y-2.596 Z1.964
X4.706 Y-2.615 Z1.963
X4.744 Y-2.619 Z1.961
X4.781 Y-2.608 Z1.96
X4.81 Y-2.582 Z1.959
X4.827 Y-2.547 Z1.957
X4.828 Y-2.508 Z1.956
X4.814 Y-2.472 Z1.954
X4.786 Y-2.445 Z1.953
X4.75 Y-2.431 Z1.952
X4.712 Y-2.433 Z1.95
X4.677 Y-2.45 Z1.949
X4.651 Y-2.479 Z1.948
X4.64 Y-2.516 Z1.946
X4.645 Y-2.555 Z1.945
X4.664 Y-2.588 Z1.944
X4.695 Y-2.611 Z1.942
X4.733 Y-2.62 Z1.941
X4.771 Y-2.612 Z1.939
X4.803 Y-2.591 Z1.938
X4.824 Y-2.558 Z1.937
X4.83 Y-2.519 Z1.935
X4.82 Y-2.482 Z1.934
X4.795 Y-2.452 Z1.933
X4.761 Y-2.433 Z1.931
X4.722 Y-2.431 Z1.93
X4.686 Y-2.443 Z1.929
X4.657 Y-2.47 Z1.927
X4.642 Y-2.505 Z1.926
Y-2.544 Z1.924
X4.657 Y-2.58 Z1.923
X4.686 Y-2.606 Z1.922
X4.722 Y-2.619 Z1.92
X4.761 Y-2.616 Z1.919
X4.795 Y-2.598 Z1.918
X4.819 Y-2.568 Z1.916
X4.83 Y-2.53 Z1.915
X4.824 Y-2.492 Z1.914
X4.803 Y-2.459 Z1.912
X4.771 Y-2.437 Z1.911
X4.733 Y-2.43 Z1.909
X4.696 Y-2.438 Z1.908
X4.664 Y-2.461 Z1.907
X4.645 Y-2.495 Z1.905
X4.64 Y-2.533 Z1.904
X4.651 Y-2.57 Z1.903
X4.676 Y-2.6 Z1.901
X4.711 Y-2.617 Z1.9
X4.75 Y-2.618 Z1.899
X4.786 Y-2.605 Z1.897
X4.814 Y-2.577 Z1.896
X4.828 Y-2.541 Z1.894
X4.827 Y-2.503 Z1.893
X4.811 Y-2.468 Z1.892
X4.781 Y-2.442 Z1.89
X4.744 Y-2.43 Z1.889
X4.706 Y-2.434 Z1.888
X4.672 Y-2.453 Z1.886
X4.649 Y-2.484 Z1.885
X4.64 Y-2.522 Z1.884
X4.647 Y-2.56 Z1.882
X4.668 Y-2.592 Z1.881
X4.701 Y-2.613 Z1.879
X4.739 Y-2.62 Z1.878
X4.777 Y-2.61 Z1.877
X4.807 Y-2.586 Z1.875
X4.826 Y-2.552 Z1.874
X4.829 Y-2.513 Z1.873
X4.817 Y-2.477 Z1.871
X4.791 Y-2.448 Z1.87
X4.755 Y-2.432 Z1.869
X4.717 Y-2.431 Z1.867
X4.681 Y-2.446 Z1.866
X4.654 Y-2.475 Z1.864
X4.641 Y-2.511 Z1.863
X4.643 Y-2.55 Z1.862
X4.661 Y-2.584 Z1.86
X4.691 Y-2.609 Z1.859
X4.728 Y-2.619 Z1.858
X4.766 Y-2.614 Z1.856
X4.8 Y-2.594 Z1.855
X4.822 Y-2.562 Z1.854
X4.83 Y-2.525 Z1.852
X4.822 Y-2.487 Z1.851
X4.799 Y-2.455 Z1.849
X4.766 Y-2.435 Z1.848
X4.728 Y-2.43 Z1.847
X4.69 Y-2.441 Z1.845
X4.66 Y-2.465 Z1.844
X4.643 Y-2.5 Z1.843
X4.641 Y-2.539 Z1.841
X4.654 Y-2.575 Z1.84
X4.681 Y-2.603 Z1.839
X4.717 Y-2.618 Z1.837
X4.756 Y-2.617 Z1.836
X4.791 Y-2.601 Z1.834
X4.817 Y-2.572 Z1.833
X4.829 Y-2.536 Z1.832
X4.826 Y-2.497 Z1.83
X4.807 Y-2.463 Z1.829
X4.776 Y-2.439 Z1.828
X4.739 Y-2.43 Z1.826
X4.7 Y-2.436 Z1.825
X4.668 Y-2.457 Z1.824
X4.646 Y-2.49 Z1.822
X4.64 Y-2.528 Z1.821
X4.649 Y-2.566 Z1.819
X4.672 Y-2.596 Z1.818
X4.706 Y-2.615 Z1.817
X4.745 Y-2.619 Z1.815
X4.782 Y-2.607 Z1.814
X4.811 Y-2.582 Z1.813
X4.827 Y-2.546 Z1.811
X4.828 Y-2.508 Z1.81
X4.814 Y-2.472 Z1.809
X4.786 Y-2.445 Z1.807
X4.75 Y-2.431 Z1.806
X4.711 Y-2.433 Z1.804
X4.676 Y-2.45 Z1.803
X4.651 Y-2.48 Z1.802
X4.64 Y-2.517 Z1.8
X4.645 Y-2.555 Z1.799
X4.664 Y-2.589 Z1.798
X4.696 Y-2.611 Z1.796
X4.734 Y-2.62 Z1.795
X4.772 Y-2.612 Z1.794
X4.804 Y-2.59 Z1.792
X4.824 Y-2.557 Z1.791
X4.83 Y-2.519 Z1.789
X4.819 Y-2.481 Z1.788
X4.795 Y-2.451 Z1.787
X4.76 Y-2.433 Z1.785
X4.722 Y-2.431 Z1.784
X4.685 Y-2.444 Z1.783
X4.657 Y-2.47 Z1.781
X4.642 Y-2.506 Z1.78
Y-2.545 Z1.779
X4.658 Y-2.58 Z1.777
X4.686 Y-2.606 Z1.776
X4.723 Y-2.619 Z1.774
X4.761 Y-2.616 Z1.773
X4.796 Y-2.598 Z1.772
X4.82 Y-2.567 Z1.77
X4.83 Y-2.53 Z1.769
X4.824 Y-2.491 Z1.768
X4.803 Y-2.459 Z1.766
X4.771 Y-2.437 Z1.765
X4.733 Y-2.43 Z1.764
X4.695 Y-2.438 Z1.762
X4.664 Y-2.462 Z1.761
X4.644 Y-2.495 Z1.759
X4.64 Y-2.534 Z1.758
X4.652 Y-2.571 Z1.757
X4.677 Y-2.6 Z1.755
X4.712 Y-2.617 Z1.754
X4.751 Y-2.618 Z1.753
X4.787 Y-2.604 Z1.751
X4.814 Y-2.577 Z1.75
X4.828 Y-2.541 Z1.749
X4.827 Y-2.502 Z1.747
X4.81 Y-2.467 Z1.746
X4.781 Y-2.442 Z1.744
X4.744 Y-2.43 Z1.743
X4.705 Y-2.434 Z1.742
X4.672 Y-2.454 Z1.74
X4.649 Y-2.485 Z1.739
X4.64 Y-2.523 Z1.738
X4.647 Y-2.561 Z1.736
X4.669 Y-2.593 Z1.735
X4.701 Y-2.614 Z1.734
X4.74 Y-2.62 Z1.732
X4.777 Y-2.61 Z1.731
X4.808 Y-2.586 Z1.729
X4.826 Y-2.551 Z1.728
X4.829 Y-2.513 Z1.727
X4.816 Y-2.476 Z1.725
X4.79 Y-2.448 Z1.724
X4.755 Y-2.432 Z1.723
X4.716 Z1.721
X4.68 Y-2.447 Z1.72
X4.654 Y-2.475 Z1.719
X4.641 Y-2.512 Z1.717
X4.643 Y-2.55 Z1.716
X4.661 Y-2.585 Z1.714
X4.691 Y-2.609 Z1.713
X4.729 Y-2.62 Z1.712
X4.767 Y-2.614 Z1.71
X4.8 Y-2.594 Z1.709
X4.822 Y-2.562 Z1.708
X4.83 Y-2.524 Z1.706
X4.821 Y-2.486 Z1.705
X4.799 Y-2.455 Z1.704
X4.765 Y-2.435 Z1.702
X4.727 Y-2.43 Z1.701
X4.69 Y-2.441 Z1.699
X4.66 Y-2.466 Z1.698
X4.643 Y-2.501 Z1.697
X4.641 Y-2.539 Z1.695
X4.655 Y-2.576 Z1.694
X4.682 Y-2.604 Z1.693
X4.718 Y-2.618 Z1.691
X4.756 Y-2.617 Z1.69
X4.792 Y-2.601 Z1.689
X4.817 Y-2.572 Z1.687
X4.829 Y-2.535 Z1.686
X4.825 Y-2.496 Z1.684
X4.807 Y-2.462 Z1.683
X4.776 Y-2.439 Z1.682
X4.738 Y-2.43 Z1.68
X4.7 Y-2.436 Z1.679
X4.667 Y-2.458 Z1.678
X4.646 Y-2.49 Z1.676
X4.64 Y-2.528 Z1.675
X4.649 Y-2.566 Z1.674
X4.673 Y-2.597 Z1.672
X4.707 Y-2.616 Z1.671
X4.745 Y-2.619 Z1.669
X4.782 Y-2.607 Z1.668
X4.811 Y-2.581 Z1.667
X4.827 Y-2.546 Z1.665
X4.828 Y-2.507 Z1.664
X4.813 Y-2.471 Z1.663
X4.785 Y-2.444 Z1.661
X4.749 Y-2.431 Z1.66
X4.71 Y-2.433 Z1.658
X4.676 Y-2.45 Z1.657
X4.651 Y-2.48 Z1.656
X4.64 Y-2.517 Z1.654
X4.645 Y-2.556 Z1.653
X4.665 Y-2.589 Z1.652
X4.697 Y-2.612 Z1.65
X4.734 Y-2.62 Z1.649
X4.772 Y-2.612 Z1.648
X4.804 Y-2.59 Z1.646
X4.824 Y-2.556 Z1.645
X4.83 Y-2.518 Z1.643
X4.819 Y-2.481 Z1.642
X4.794 Y-2.451 Z1.641
X4.76 Y-2.433 Z1.639
X4.721 Y-2.431 Z1.638
X4.685 Y-2.444 Z1.637
X4.657 Y-2.471 Z1.635
X4.642 Y-2.506 Z1.634
Y-2.545 Z1.633
X4.658 Y-2.581 Z1.631
X4.687 Y-2.607 Z1.63
X4.723 Y-2.619 Z1.628
X4.762 Y-2.616 Z1.627
X4.796 Y-2.597 Z1.626
X4.82 Y-2.567 Z1.624
X4.83 Y-2.529 Z1.623
X4.823 Y-2.491 Z1.622
X4.803 Y-2.458 Z1.62
X4.77 Y-2.437 Z1.619
X4.732 Y-2.43 Z1.618
X4.694 Y-2.439 Z1.616
X4.663 Y-2.462 Z1.615
X4.644 Y-2.496 Z1.613
X4.64 Y-2.534 Z1.612
X4.652 Y-2.571 Z1.611
X4.677 Y-2.6 Z1.609
X4.713 Y-2.617 Z1.608
X4.751 Y-2.618 Z1.607
X4.787 Y-2.604 Z1.605
X4.815 Y-2.576 Z1.604
X4.828 Y-2.54 Z1.603
X4.827 Y-2.501 Z1.601
X4.81 Y-2.466 Z1.6
X4.78 Y-2.441 Z1.598
X4.743 Y-2.43 Z1.597
X4.705 Y-2.435 Z1.596
X4.671 Y-2.454 Z1.594
X4.648 Y-2.485 Z1.593
X4.64 Y-2.523 Z1.592
X4.647 Y-2.561 Z1.59
X4.669 Y-2.593 Z1.589
X4.702 Y-2.614 Z1.588
X4.74 Y-2.62 Z1.586
X4.778 Y-2.609 Z1.585
X4.808 Y-2.585 Z1.583
X4.826 Y-2.551 Z1.582
X4.829 Y-2.512 Z1.581
X4.816 Y-2.476 Z1.579
X4.79 Y-2.447 Z1.578
X4.754 Y-2.432 Z1.577
X4.715 Z1.575
X4.68 Y-2.447 Z1.574
X4.653 Y-2.476 Z1.573
X4.641 Y-2.512 Z1.571
X4.643 Y-2.551 Z1.57
X4.662 Y-2.585 Z1.568
X4.692 Y-2.609 Z1.567
X4.729 Y-2.62 Z1.566
X4.768 Y-2.614 Z1.564
X4.8 Y-2.593 Z1.563
X4.822 Y-2.561 Z1.562
X4.83 Y-2.523 Z1.56
X4.821 Y-2.485 Z1.559
X4.798 Y-2.454 Z1.558
X4.765 Y-2.435 Z1.556
X4.726 Y-2.43 Z1.555
X4.689 Y-2.441 Z1.553
X4.66 Y-2.467 Z1.552
X4.643 Y-2.501 Z1.551
X4.641 Y-2.54 Z1.549
X4.655 Y-2.576 Z1.548
X4.682 Y-2.604 Z1.547
X4.718 Y-2.618 Z1.545
X4.757 Y-2.617 Z1.544
X4.792 Y-2.6 Z1.543
X4.818 Y-2.571 Z1.541
X4.829 Y-2.534 Z1.54
X4.825 Y-2.496 Z1.538
X4.806 Y-2.462 Z1.537
X4.775 Y-2.439 Z1.536
X4.737 Y-2.43 Z1.534
X4.699 Y-2.437 Z1.533
X4.667 Y-2.458 Z1.532
X4.646 Y-2.491 Z1.53
X4.64 Y-2.529 Z1.529
X4.65 Y-2.567 Z1.528
X4.673 Y-2.597 Z1.526
X4.707 Y-2.616 Z1.525
X4.746 Y-2.619 Z1.523
X4.783 Y-2.607 Z1.522
X4.812 Y-2.581 Z1.521
X4.828 Y-2.545 Z1.519
Y-2.506 Z1.518
X4.813 Y-2.471 Z1.517
X4.785 Y-2.444 Z1.515
X4.748 Y-2.431 Z1.514
X4.71 Y-2.433 Z1.513
X4.675 Y-2.451 Z1.511
X4.651 Y-2.481 Z1.51
X4.64 Y-2.518 Z1.508
X4.645 Y-2.556 Z1.507
X4.665 Y-2.59 Z1.506
X4.697 Y-2.612 Z1.504
X4.735 Y-2.62 Z1.503
X4.773 Y-2.612 Z1.502
X4.805 Y-2.589 Z1.5
X4.825 Y-2.556 Z1.499
X4.829 Y-2.517 Z1.498
X4.819 Y-2.48 Z1.496
X4.794 Y-2.45 Z1.495
X4.759 Y-2.433 Z1.493
X4.72 Y-2.431 Z1.492
X4.684 Y-2.444 Z1.491
X4.656 Y-2.471 Z1.489
X4.641 Y-2.507 Z1.488
X4.642 Y-2.546 Z1.487
X4.658 Y-2.581 Z1.485
X4.687 Y-2.607 Z1.484
X4.724 Y-2.619 Z1.483
X4.763 Y-2.616 Z1.481
X4.797 Y-2.597 Z1.48
X4.82 Y-2.566 Z1.478
X4.83 Y-2.528 Z1.477
X4.823 Y-2.49 Z1.476
X4.802 Y-2.458 Z1.474
X4.77 Y-2.436 Z1.473
X4.731 Y-2.43 Z1.472
X4.694 Y-2.439 Z1.47
X4.663 Y-2.462 Z1.469
X4.644 Y-2.496 Z1.468
X4.64 Y-2.535 Z1.466
X4.652 Y-2.572 Z1.465
X4.678 Y-2.601 Z1.463
X4.713 Y-2.617 Z1.462
X4.752 Y-2.618 Z1.461
X4.788 Y-2.603 Z1.459
X4.815 Y-2.576 Z1.458
X4.829 Y-2.539 Z1.457
X4.827 Y-2.501 Z1.455
X4.809 Y-2.466 Z1.454
X4.78 Y-2.441 Z1.453
X4.743 Y-2.43 Z1.451
X4.704 Y-2.435 Z1.45
X4.671 Y-2.455 Z1.448
X4.648 Y-2.486 Z1.447
X4.64 Y-2.524 Z1.446
X4.647 Y-2.562 Z1.444
X4.67 Y-2.594 Z1.443
X4.703 Y-2.614 Z1.442
X4.741 Y-2.619 Z1.44
X4.778 Y-2.609 Z1.439
X4.808 Y-2.585 Z1.438
X4.826 Y-2.55 Z1.436
X4.829 Y-2.512 Z1.435
X4.816 Y-2.475 Z1.433
X4.789 Y-2.447 Z1.432
X4.753 Y-2.432 Z1.431
X4.715 Z1.429
X4.679 Y-2.448 Z1.428
X4.653 Y-2.476 Z1.427
X4.64 Y-2.513 Z1.425
X4.644 Y-2.552 Z1.424
X4.662 Y-2.586 Z1.423
X4.692 Y-2.61 Z1.421
X4.73 Y-2.62 Z1.42
X4.768 Y-2.614 Z1.418
X4.801 Y-2.593 Z1.417
X4.823 Y-2.561 Z1.416
X4.83 Y-2.523 Z1.414
X4.821 Y-2.485 Z1.413
X4.798 Y-2.454 Z1.412
X4.764 Y-2.434 Z1.41
X4.726 Y-2.43 Z1.409
X4.689 Y-2.442 Z1.408
X4.659 Y-2.467 Z1.406
X4.642 Y-2.502 Z1.405
X4.641 Y-2.541 Z1.403
X4.655 Y-2.577 Z1.402
X4.683 Y-2.604 Z1.401
X4.719 Y-2.618 Z1.399
X4.758 Y-2.617 Z1.398
X4.793 Y-2.6 Z1.397
X4.818 Y-2.571 Z1.395
X4.829 Y-2.534 Z1.394
X4.825 Y-2.495 Z1.393
X4.806 Y-2.461 Z1.391
X4.774 Y-2.438 Z1.39
X4.737 Y-2.43 Z1.388
X4.699 Y-2.437 Z1.387
X4.666 Y-2.459 Z1.386
X4.646 Y-2.491 Z1.384
X4.64 Y-2.53 Z1.383
X4.65 Y-2.567 Z1.382
X4.674 Y-2.598 Z1.38
X4.708 Y-2.616 Z1.379
X4.747 Y-2.619 Z1.378
X4.783 Y-2.606 Z1.376
X4.812 Y-2.58 Z1.375
X4.828 Y-2.545 Z1.373
Y-2.506 Z1.372
X4.813 Y-2.47 Z1.371
X4.784 Y-2.444 Z1.369
X4.748 Y-2.431 Z1.368
X4.709 Y-2.433 Z1.367
X4.675 Y-2.451 Z1.365
X4.65 Y-2.481 Z1.364
X4.64 Y-2.519 Z1.363
X4.645 Y-2.557 Z1.361
X4.666 Y-2.59 Z1.36
X4.698 Y-2.612 Z1.358
X4.736 Y-2.62 Z1.357
X4.774 Y-2.611 Z1.356
X4.805 Y-2.589 Z1.354
X4.825 Y-2.555 Z1.353
X4.829 Y-2.517 Z1.352
X4.818 Y-2.48 Z1.35
X4.793 Y-2.45 Z1.349
X4.759 Y-2.433 Z1.348
X4.72 Y-2.431 Z1.346
X4.684 Y-2.445 Z1.345
X4.656 Y-2.472 Z1.343
X4.641 Y-2.508 Z1.342
X4.642 Y-2.547 Z1.341
X4.659 Y-2.582 Z1.339
X4.688 Y-2.607 Z1.338
X4.725 Y-2.619 Z1.337
X4.763 Y-2.615 Z1.335
X4.797 Y-2.596 Z1.334
X4.821 Y-2.565 Z1.333
X4.83 Y-2.528 Z1.331
X4.823 Y-2.49 Z1.33
X4.802 Y-2.457 Z1.328
X4.769 Y-2.436 Z1.327
X4.731 Y-2.43 Z1.326
X4.693 Y-2.439 Z1.324
X4.663 Y-2.463 Z1.323
X4.644 Y-2.497 Z1.322
X4.64 Y-2.536 Z1.32
X4.653 Y-2.572 Z1.319
X4.679 Y-2.601 Z1.318
X4.714 Y-2.617 Z1.316
X4.753 Y-2.618 Z1.315
X4.788 Y-2.603 Z1.313
X4.815 Y-2.575 Z1.312
X4.829 Y-2.539 Z1.311
X4.826 Y-2.5 Z1.309
X4.809 Y-2.465 Z1.308
X4.779 Y-2.441 Z1.307
X4.742 Y-2.43 Z1.305
X4.703 Y-2.435 Z1.304
X4.67 Y-2.455 Z1.303
X4.648 Y-2.487 Z1.301
X4.64 Y-2.525 Z1.3
X4.648 Y-2.563 Z1.298
X4.67 Y-2.594 Z1.297
X4.703 Y-2.614 Z1.296
X4.742 Y-2.619 Z1.294
X4.779 Y-2.609 Z1.293
X4.809 Y-2.584 Z1.292
X4.826 Y-2.55 Z1.29
X4.829 Y-2.511 Z1.289
X4.815 Y-2.474 Z1.288
X4.789 Y-2.446 Z1.286
X4.753 Y-2.431 Z1.285
X4.714 Y-2.432 Z1.283
X4.679 Y-2.448 Z1.282
X4.653 Y-2.477 Z1.281
X4.64 Y-2.514 Z1.279
X4.644 Y-2.552 Z1.278
X4.662 Y-2.586 Z1.277
X4.693 Y-2.61 Z1.275
X4.731 Y-2.62 Z1.274
X4.769 Y-2.613 Z1.273
X4.801 Y-2.592 Z1.271
X4.823 Y-2.56 Z1.27
X4.83 Y-2.522 Z1.268
X4.821 Y-2.484 Z1.267
X4.797 Y-2.453 Z1.266
X4.764 Y-2.434 Z1.264
X4.725 Y-2.43 Z1.263
X4.688 Y-2.442 Z1.262
X4.659 Y-2.468 Z1.26
X4.642 Y-2.503 Z1.259
X4.641 Y-2.541 Z1.258
X4.656 Y-2.577 Z1.256
X4.683 Y-2.605 Z1.255
X4.72 Y-2.618 Z1.253
X4.758 Y-2.617 Z1.252
X4.793 Y-2.6 Z1.251
X4.818 Y-2.57 Z1.249
X4.829 Y-2.533 Z1.248
X4.825 Y-2.494 Z1.247
X4.805 Y-2.461 Z1.245
X4.774 Y-2.438 Z1.244
X4.736 Y-2.43 Z1.243
X4.698 Y-2.437 Z1.241
X4.666 Y-2.459 Z1.24
X4.646 Y-2.492 Z1.238
X4.64 Y-2.53 Z1.237
X4.65 Y-2.568 Z1.236
X4.674 Y-2.598 Z1.234
X4.709 Y-2.616 Z1.233
X4.747 Y-2.619 Z1.232
X4.784 Y-2.606 Z1.23
X4.812 Y-2.579 Z1.229
X4.828 Y-2.544 Z1.228
Y-2.505 Z1.226
X4.812 Y-2.47 Z1.225
X4.784 Y-2.443 Z1.223
X4.747 Y-2.431 Z1.222
X4.708 Y-2.433 Z1.221
X4.674 Y-2.452 Z1.219
X4.65 Y-2.482 Z1.218
X4.64 Y-2.519 Z1.217
X4.646 Y-2.558 Z1.215
X4.666 Y-2.591 Z1.214
X4.698 Y-2.612 Z1.213
X4.736 Y-2.62 Z1.211
X4.774 Y-2.611 Z1.21
X4.805 Y-2.588 Z1.208
X4.825 Y-2.555 Z1.207
X4.829 Y-2.516 Z1.206
X4.818 Y-2.479 Z1.204
X4.793 Y-2.45 Z1.203
X4.758 Y-2.433 Z1.202
X4.719 Y-2.431 Z1.2
X4.683 Y-2.445 Z1.199
X4.655 Y-2.472 Z1.198
X4.641 Y-2.508 Z1.196
X4.642 Y-2.547 Z1.195
X4.659 Y-2.582 Z1.193
X4.688 Y-2.608 Z1.192
X4.725 Y-2.619 Z1.191
X4.764 Y-2.615 Z1.189
X4.798 Y-2.596 Z1.188
X4.821 Y-2.565 Z1.187
X4.83 Y-2.527 Z1.185
X4.823 Y-2.489 Z1.184
X4.801 Y-2.457 Z1.183
X4.768 Y-2.436 Z1.181
X4.73 Y-2.43 Z1.18
X4.693 Y-2.44 Z1.178
X4.662 Y-2.463 Z1.177
X4.644 Y-2.498 Z1.176
X4.64 Y-2.536 Z1.174
X4.653 Y-2.573 Z1.173
X4.679 Y-2.602 Z1.172
X4.714 Y-2.618 Z1.17
X4.753 Z1.169
X4.789 Y-2.603 Z1.168
X4.816 Y-2.575 Z1.166
X4.829 Y-2.538 Z1.165
X4.826 Y-2.499 Z1.163
X4.809 Y-2.465 Z1.162
X4.779 Y-2.44 Z1.161
X4.741 Y-2.43 Z1.159
X4.703 Y-2.435 Z1.158
X4.67 Y-2.455 Z1.157
X4.647 Y-2.487 Z1.155
X4.64 Y-2.525 Z1.154
X4.648 Y-2.563 Z1.153
X4.67 Y-2.595 Z1.151
X4.704 Y-2.615 Z1.15
X4.742 Y-2.619 Z1.148
X4.779 Y-2.609 Z1.147
X4.809 Y-2.584 Z1.146
X4.827 Y-2.549 Z1.144
X4.829 Y-2.51 Z1.143
X4.815 Y-2.474 Z1.142
X4.788 Y-2.446 Z1.14
X4.752 Y-2.431 Z1.139
X4.713 Y-2.432 Z1.138
X4.678 Y-2.448 Z1.136
X4.652 Y-2.477 Z1.135
X4.64 Y-2.514 Z1.133
X4.644 Y-2.553 Z1.132
X4.663 Y-2.587 Z1.131
X4.694 Y-2.61 Z1.129
X4.731 Y-2.62 Z1.128
X4.769 Y-2.613 Z1.127
X4.802 Y-2.592 Z1.125
X4.823 Y-2.559 Z1.124
X4.83 Y-2.521 Z1.123
X4.82 Y-2.484 Z1.121
X4.797 Y-2.453 Z1.12
X4.763 Y-2.434 Z1.118
X4.724 Y-2.43 Z1.117
X4.687 Y-2.442 Z1.116
X4.658 Y-2.468 Z1.114
X4.642 Y-2.503 Z1.113
X4.641 Y-2.542 Z1.112
X4.656 Y-2.578 Z1.11
X4.684 Y-2.605 Z1.109
X4.72 Y-2.619 Z1.108
X4.759 Y-2.617 Z1.106
X4.794 Y-2.599 Z1.105
X4.819 Y-2.57 Z1.103
X4.829 Y-2.532 Z1.102
X4.825 Y-2.494 Z1.101
X4.805 Y-2.461 Z1.099
X4.773 Y-2.438 Z1.098
X4.735 Y-2.43 Z1.097
X4.697 Y-2.437 Z1.095
X4.666 Y-2.46 Z1.094
X4.645 Y-2.493 Z1.092
X4.64 Y-2.531 Z1.091
X4.65 Y-2.568 Z1.09
X4.675 Y-2.598 Z1.088
X4.709 Y-2.616 Z1.087
X4.748 Y-2.619 Z1.086
X4.785 Y-2.606 Z1.084
X4.813 Y-2.579 Z1.083
X4.828 Y-2.543 Z1.082
Y-2.504 Z1.08
X4.812 Y-2.469 Z1.079
X4.783 Y-2.443 Z1.077
X4.746 Y-2.43 Z1.076
X4.708 Y-2.434 Z1.075
X4.674 Y-2.452 Z1.073
X4.65 Y-2.482 Z1.072
X4.64 Y-2.52 Z1.071
X4.646 Y-2.558 Z1.069
X4.667 Y-2.591 Z1.068
X4.699 Y-2.613 Z1.067
X4.737 Y-2.62 Z1.065
X4.775 Y-2.611 Z1.064
X4.806 Y-2.588 Z1.062
X4.825 Y-2.554 Z1.061
X4.829 Y-2.515 Z1.06
X4.818 Y-2.478 Z1.058
X4.792 Y-2.449 Z1.057
X4.757 Y-2.432 Z1.056
X4.719 Y-2.431 Z1.054
X4.682 Y-2.445 Z1.053
X4.655 Y-2.473 Z1.052
X4.641 Y-2.509 Z1.05
X4.643 Y-2.548 Z1.049
X4.659 Y-2.583 Z1.047
X4.689 Y-2.608 Z1.046
X4.726 Y-2.619 Z1.045
X4.765 Y-2.615 Z1.043
X4.798 Y-2.595 Z1.042
X4.821 Y-2.564 Z1.041
X4.83 Y-2.526 Z1.039
X4.823 Y-2.488 Z1.038
X4.801 Y-2.456 Z1.037
X4.768 Y-2.436 Z1.035
X4.73 Y-2.43 Z1.034
X4.692 Y-2.44 Z1.032
X4.662 Y-2.464 Z1.031
X4.644 Y-2.498 Z1.03
X4.641 Y-2.537 Z1.028
X4.653 Y-2.574 Z1.027
X4.68 Y-2.602 Z1.026
X4.715 Y-2.618 Z1.024
X4.754 Z1.023
X4.789 Y-2.602 Z1.022
X4.816 Y-2.574 Z1.02
X4.829 Y-2.537 Z1.019
X4.826 Y-2.499 Z1.017
X4.808 Y-2.464 Z1.016
X4.778 Y-2.44 Z1.015
X4.741 Y-2.43 Z1.013
X4.702 Y-2.435 Z1.012
X4.669 Y-2.456 Z1.011
X4.647 Y-2.488 Z1.009
X4.64 Y-2.526 Z1.008
X4.648 Y-2.564 Z1.007
X4.671 Y-2.595 Z1.005
X4.704 Y-2.615 Z1.004
X4.743 Y-2.619 Z1.002
X4.78 Y-2.608 Z1.001
X4.81 Y-2.583 Z1
X4.827 Y-2.548 Z0.998
X4.829 Y-2.51 Z0.997
X4.815 Y-2.473 Z0.996
X4.788 Y-2.446 Z0.994
X4.752 Y-2.431 Z0.993
X4.713 Y-2.432 Z0.992
X4.678 Y-2.449 Z0.99
X4.652 Y-2.478 Z0.989
X4.64 Y-2.515 Z0.987
X4.644 Y-2.553 Z0.986
X4.663 Y-2.587 Z0.985
X4.694 Y-2.611 Z0.983
X4.732 Y-2.62 Z0.982
X4.77 Y-2.613 Z0.981
X4.802 Y-2.591 Z0.979
X4.823 Y-2.559 Z0.978
X4.83 Y-2.521 Z0.977
X4.82 Y-2.483 Z0.975
X4.796 Y-2.452 Z0.974
X4.762 Y-2.434 Z0.972
X4.724 Y-2.43 Z0.971
X4.687 Y-2.443 Z0.97
X4.658 Y-2.469 Z0.968
X4.642 Y-2.504 Z0.967
X4.641 Y-2.543 Z0.966
X4.656 Y-2.578 Z0.964
X4.684 Y-2.605 Z0.963
X4.721 Y-2.619 Z0.962
X4.76 Y-2.616 Z0.96
X4.794 Y-2.599 Z0.959
X4.819 Y-2.569 Z0.957
X4.829 Y-2.532 Z0.956
X4.824 Y-2.493 Z0.955
X4.804 Y-2.46 Z0.953
X4.773 Y-2.438 Z0.952
X4.735 Y-2.43 Z0.951
X4.697 Y-2.438 Z0.949
X4.665 Y-2.46 Z0.948
X4.645 Y-2.493 Z0.947
X4.64 Y-2.532 Z0.945
X4.651 Y-2.569 Z0.944
X4.675 Y-2.599 Z0.942
X4.71 Y-2.616 Z0.941
X4.749 Y-2.619 Z0.94
X4.785 Y-2.605 Z0.938
X4.813 Y-2.578 Z0.937
X4.828 Y-2.543 Z0.936
X4.827 Y-2.504 Z0.934
X4.811 Y-2.469 Z0.933
X4.783 Y-2.443 Z0.932
X4.746 Y-2.43 Z0.93
X4.707 Y-2.434 Z0.929
X4.673 Y-2.452 Z0.927
X4.649 Y-2.483 Z0.926
X4.64 Y-2.521 Z0.925
X4.646 Y-2.559 Z0.923
X4.667 Y-2.591 Z0.922
X4.7 Y-2.613 Z0.921
X4.738 Y-2.62 Z0.919
X4.775 Y-2.611 Z0.918
X4.806 Y-2.587 Z0.917
X4.825 Y-2.553 Z0.915
X4.829 Y-2.515 Z0.914
X4.817 Y-2.478 Z0.912
X4.792 Y-2.449 Z0.911
X4.757 Y-2.432 Z0.91
X4.718 Y-2.431 Z0.908
X4.682 Y-2.446 Z0.907
X4.655 Y-2.473 Z0.906
X4.641 Y-2.51 Z0.904
X4.643 Y-2.548 Z0.903
X4.66 Y-2.583 Z0.902
X4.689 Y-2.608 Z0.9
X4.727 Y-2.619 Z0.899
X4.765 Y-2.615 Z0.897
X4.799 Y-2.595 Z0.896
X4.821 Y-2.564 Z0.895
X4.83 Y-2.526 Z0.893
X4.822 Y-2.488 Z0.892
X4.8 Y-2.456 Z0.891
X4.767 Y-2.435 Z0.889
X4.729 Y-2.43 Z0.888
X4.691 Y-2.44 Z0.887
X4.661 Y-2.464 Z0.885
X4.643 Y-2.499 Z0.884
X4.641 Y-2.538 Z0.882
X4.654 Y-2.574 Z0.881
X4.68 Y-2.602 Z0.88
X4.716 Y-2.618 Z0.878
X4.754 Z0.877
X4.79 Y-2.602 Z0.876
X4.816 Y-2.573 Z0.874
X4.829 Y-2.537 Z0.873
X4.826 Y-2.498 Z0.872
X4.808 Y-2.464 Z0.87
X4.777 Y-2.44 Z0.869
X4.74 Y-2.43 Z0.867
X4.702 Y-2.436 Z0.866
X4.669 Y-2.456 Z0.865
X4.647 Y-2.488 Z0.863
X4.64 Y-2.527 Z0.862
X4.648 Y-2.564 Z0.861
X4.671 Y-2.596 Z0.859
X4.705 Y-2.615 Z0.858
X4.744 Y-2.619 Z0.857
X4.781 Y-2.608 Z0.855
X4.81 Y-2.583 Z0.854
X4.827 Y-2.548 Z0.852
X4.828 Y-2.509 Z0.851
X4.814 Y-2.473 Z0.85
X4.787 Y-2.445 Z0.848
X4.751 Y-2.431 Z0.847
X4.712 Y-2.432 Z0.846
X4.677 Y-2.449 Z0.844
X4.652 Y-2.478 Z0.843
X4.64 Y-2.515 Z0.842
X4.644 Y-2.554 Z0.84
X4.664 Y-2.588 Z0.839
X4.695 Y-2.611 Z0.837
X4.732 Y-2.62 Z0.836
X4.771 Y-2.613 Z0.835
X4.803 Y-2.591 Z0.833
X4.824 Y-2.558 Z0.832
X4.83 Y-2.52 Z0.831
X4.82 Y-2.482 Z0.829
X4.796 Y-2.452 Z0.828
X4.762 Y-2.434 Z0.827
X4.723 Y-2.43 Z0.825
X4.686 Y-2.443 Z0.824
X4.658 Y-2.469 Z0.822
X4.642 Y-2.505 Z0.821
Y-2.543 Z0.82
X4.657 Y-2.579 Z0.818
X4.685 Y-2.606 Z0.817
X4.721 Y-2.619 Z0.816
X4.76 Y-2.616 Z0.814
X4.795 Y-2.598 Z0.813
X4.819 Y-2.568 Z0.812
X4.83 Y-2.531 Z0.81
X4.824 Y-2.493 Z0.809
X4.804 Y-2.46 Z0.807
X4.772 Y-2.437 Z0.806
X4.734 Y-2.43 Z0.805
X4.696 Y-2.438 Z0.803
X4.665 Y-2.461 Z0.802
X4.645 Y-2.494 Z0.801
X4.64 Y-2.532 Z0.799
X4.651 Y-2.57 Z0.798
X4.676 Y-2.599 Z0.797
X4.711 Y-2.617 Z0.795
X4.749 Y-2.619 Z0.794
X4.786 Y-2.605 Z0.792
X4.813 Y-2.578 Z0.791
X4.828 Y-2.542 Z0.79
X4.827 Y-2.503 Z0.788
X4.811 Y-2.468 Z0.787
X4.782 Y-2.442 Z0.786
X4.745 Y-2.43 Z0.784
X4.707 Y-2.434 Z0.783
X4.673 Y-2.453 Z0.782
X4.649 Y-2.484 Z0.78
X4.64 Y-2.521 Z0.779
X4.646 Y-2.56 Z0.777
X4.668 Y-2.592 Z0.776
X4.7 Y-2.613 Z0.775
X4.738 Y-2.62 Z0.773
X4.776 Y-2.61 Z0.772
X4.807 Y-2.587 Z0.771
X4.826 Y-2.553 Z0.769
X4.829 Y-2.514 Z0.768
X4.817 Y-2.477 Z0.767
X4.791 Y-2.448 Z0.765
X4.756 Y-2.432 Z0.764
X4.717 Y-2.431 Z0.762
X4.681 Y-2.446 Z0.761
X4.654 Y-2.474 Z0.76
X4.641 Y-2.51 Z0.758
X4.643 Y-2.549 Z0.757
X4.66 Y-2.584 Z0.756
X4.69 Y-2.609 Z0.754
X4.727 Y-2.619 Z0.753
X4.766 Y-2.614 Z0.752
X4.799 Y-2.595 Z0.75
X4.822 Y-2.563 Z0.749
X4.83 Y-2.525 Z0.747
X4.822 Y-2.487 Z0.746
X4.8 Y-2.455 Z0.745
X4.767 Y-2.435 Z0.743
X4.728 Y-2.43 Z0.742
X4.691 Y-2.44 Z0.741
X4.661 Y-2.465 Z0.739
X4.643 Y-2.499 Z0.738
X4.641 Y-2.538 Z0.737
X4.654 Y-2.575 Z0.735
X4.681 Y-2.603 Z0.734
X4.716 Y-2.618 Z0.732
X4.755 Y-2.617 Z0.731
X4.79 Y-2.602 Z0.73
X4.817 Y-2.573 Z0.728
X4.829 Y-2.536 Z0.727
X4.826 Y-2.498 Z0.726
X4.807 Y-2.463 Z0.724
X4.777 Y-2.44 Z0.723
X4.739 Y-2.43 Z0.722
X4.701 Y-2.436 Z0.72
X4.668 Y-2.457 Z0.719
X4.647 Y-2.489 Z0.717
X4.64 Y-2.527 Z0.716
X4.649 Y-2.565 Z0.715
X4.672 Y-2.596 Z0.713
X4.706 Y-2.615 Z0.712
X4.744 Y-2.619 Z0.711
X4.781 Y-2.608 Z0.709
X4.81 Y-2.582 Z0.708
X4.827 Y-2.547 Z0.707
X4.828 Y-2.508 Z0.705
X4.814 Y-2.472 Z0.704
X4.786 Y-2.445 Z0.702
X4.75 Y-2.431 Z0.701
X4.712 Y-2.433 Z0.7
X4.677 Y-2.45 Z0.698
X4.651 Y-2.479 Z0.697
X4.64 Y-2.516 Z0.696
X4.645 Y-2.555 Z0.694
X4.664 Y-2.588 Z0.693
X4.695 Y-2.611 Z0.692
X4.733 Y-2.62 Z0.69
X4.771 Y-2.612 Z0.689
X4.803 Y-2.591 Z0.687
X4.824 Y-2.558 Z0.686
X4.83 Y-2.519 Z0.685
X4.82 Y-2.482 Z0.683
X4.795 Y-2.452 Z0.682
X4.761 Y-2.433 Z0.681
X4.722 Y-2.431 Z0.679
X4.686 Y-2.443 Z0.678
X4.657 Y-2.47 Z0.677
X4.642 Y-2.505 Z0.675
Y-2.544 Z0.674
X4.657 Y-2.58 Z0.672
X4.686 Y-2.606 Z0.671
X4.722 Y-2.619 Z0.67
X4.761 Y-2.616 Z0.668
X4.795 Y-2.598 Z0.667
X4.819 Y-2.568 Z0.666
X4.83 Y-2.53 Z0.664
X4.824 Y-2.492 Z0.663
X4.803 Y-2.459 Z0.662
X4.771 Y-2.437 Z0.66
X4.733 Y-2.43 Z0.659
X4.696 Y-2.438 Z0.657
X4.664 Y-2.461 Z0.656
X4.645 Y-2.495 Z0.655
X4.64 Y-2.533 Z0.653
X4.651 Y-2.57 Z0.652
X4.676 Y-2.6 Z0.651
X4.711 Y-2.617 Z0.649
X4.75 Y-2.618 Z0.648
X4.786 Y-2.605 Z0.647
X4.814 Y-2.577 Z0.645
X4.828 Y-2.541 Z0.644
X4.827 Y-2.503 Z0.642
X4.811 Y-2.468 Z0.641
X4.781 Y-2.442 Z0.64
X4.744 Y-2.43 Z0.638
X4.706 Y-2.434 Z0.637
X4.672 Y-2.453 Z0.636
X4.649 Y-2.484 Z0.634
X4.64 Y-2.522 Z0.633
X4.647 Y-2.56 Z0.632
X4.668 Y-2.592 Z0.63
X4.701 Y-2.613 Z0.629
X4.739 Y-2.62 Z0.627
X4.777 Y-2.61 Z0.626
X4.807 Y-2.586 Z0.625
X4.826 Y-2.552 Z0.623
X4.829 Y-2.513 Z0.622
X4.817 Y-2.477 Z0.621
X4.791 Y-2.448 Z0.619
X4.755 Y-2.432 Z0.618
X4.717 Y-2.431 Z0.617
X4.681 Y-2.446 Z0.615
X4.654 Y-2.475 Z0.614
X4.641 Y-2.511 Z0.612
X4.643 Y-2.55 Z0.611
X4.661 Y-2.584 Z0.61
X4.691 Y-2.609 Z0.608
X4.728 Y-2.619 Z0.607
X4.766 Y-2.614 Z0.606
X4.8 Y-2.594 Z0.604
X4.822 Y-2.562 Z0.603
X4.83 Y-2.525 Z0.602
X4.822 Y-2.487 Z0.6
X4.799 Y-2.455 Z0.599
X4.766 Y-2.435 Z0.597
X4.728 Y-2.43 Z0.596
X4.69 Y-2.441 Z0.595
X4.66 Y-2.465 Z0.593
X4.643 Y-2.5 Z0.592
X4.641 Y-2.539 Z0.591
X4.654 Y-2.575 Z0.589
X4.681 Y-2.603 Z0.588
X4.717 Y-2.618 Z0.587
X4.756 Y-2.617 Z0.585
X4.791 Y-2.601 Z0.584
X4.817 Y-2.572 Z0.582
X4.829 Y-2.536 Z0.581
X4.826 Y-2.497 Z0.58
X4.807 Y-2.463 Z0.578
X4.776 Y-2.439 Z0.577
X4.739 Y-2.43 Z0.576
X4.7 Y-2.436 Z0.574
X4.668 Y-2.457 Z0.573
X4.646 Y-2.49 Z0.572
X4.64 Y-2.528 Z0.57
X4.649 Y-2.565 Z0.569
X4.672 Y-2.596 Z0.567
X4.706 Y-2.615 Z0.566
X4.745 Y-2.619 Z0.565
X4.782 Y-2.607 Z0.563
X4.811 Y-2.582 Z0.562
X4.827 Y-2.546 Z0.561
X4.828 Y-2.508 Z0.559
X4.814 Y-2.472 Z0.558
X4.786 Y-2.445 Z0.557
X4.75 Y-2.431 Z0.555
X4.711 Y-2.433 Z0.554
X4.676 Y-2.45 Z0.552
X4.651 Y-2.48 Z0.551
X4.64 Y-2.517 Z0.55
X4.645 Y-2.555 Z0.548
X4.664 Y-2.589 Z0.547
X4.696 Y-2.611 Z0.546
X4.734 Y-2.62 Z0.544
X4.772 Y-2.612 Z0.543
X4.804 Y-2.59 Z0.542
X4.824 Y-2.557 Z0.54
X4.83 Y-2.519 Z0.539
X4.819 Y-2.481 Z0.537
X4.795 Y-2.451 Z0.536
X4.76 Y-2.433 Z0.535
X4.722 Y-2.431 Z0.533
X4.685 Y-2.444 Z0.532
X4.657 Y-2.47 Z0.531
X4.642 Y-2.506 Z0.529
Y-2.545 Z0.528
X4.658 Y-2.58 Z0.526
X4.686 Y-2.606 Z0.525
X4.723 Y-2.619 Z0.524
X4.761 Y-2.616 Z0.522
X4.796 Y-2.598 Z0.521
X4.82 Y-2.567 Z0.52
X4.83 Y-2.53 Z0.518
X4.824 Y-2.491 Z0.517
X4.803 Y-2.459 Z0.516
X4.771 Y-2.437 Z0.514
X4.733 Y-2.43 Z0.513
X4.695 Y-2.438 Z0.511
X4.664 Y-2.462 Z0.51
X4.644 Y-2.495 Z0.509
X4.64 Y-2.534 Z0.507
X4.652 Y-2.571 Z0.506
X4.677 Y-2.6 Z0.505
X4.712 Y-2.617 Z0.503
X4.751 Y-2.618 Z0.502
X4.787 Y-2.604 Z0.501
X4.814 Y-2.577 Z0.499
X4.828 Y-2.541 Z0.498
X4.827 Y-2.502 Z0.496
X4.81 Y-2.467 Z0.495
X4.781 Y-2.442 Z0.494
X4.744 Y-2.43 Z0.492
X4.705 Y-2.434 Z0.491
X4.672 Y-2.454 Z0.49
X4.649 Y-2.485 Z0.488
X4.64 Y-2.523 Z0.487
X4.647 Y-2.561 Z0.486
X4.669 Y-2.593 Z0.484
X4.701 Y-2.614 Z0.483
X4.74 Y-2.62 Z0.481
X4.777 Y-2.61 Z0.48
X4.808 Y-2.586 Z0.479
X4.826 Y-2.551 Z0.477
X4.829 Y-2.513 Z0.476
X4.816 Y-2.476 Z0.475
X4.79 Y-2.448 Z0.473
X4.755 Y-2.432 Z0.472
X4.716 Z0.471
X4.68 Y-2.447 Z0.469
X4.654 Y-2.475 Z0.468
X4.641 Y-2.512 Z0.466
X4.643 Y-2.55 Z0.465
X4.661 Y-2.585 Z0.464
X4.691 Y-2.609 Z0.462
X4.729 Y-2.62 Z0.461
X4.767 Y-2.614 Z0.46
X4.8 Y-2.594 Z0.458
X4.822 Y-2.562 Z0.457
X4.83 Y-2.524 Z0.456
X4.821 Y-2.486 Z0.454
X4.799 Y-2.455 Z0.453
X4.765 Y-2.435 Z0.451
X4.727 Y-2.43 Z0.45
X4.69 Y-2.441 Z0.449
X4.66 Y-2.466 Z0.447
X4.643 Y-2.501 Z0.446
X4.641 Y-2.539 Z0.445
X4.655 Y-2.576 Z0.443
X4.682 Y-2.604 Z0.442
X4.718 Y-2.618 Z0.441
X4.756 Y-2.617 Z0.439
X4.792 Y-2.601 Z0.438
X4.817 Y-2.572 Z0.436
X4.829 Y-2.535 Z0.435
X4.825 Y-2.496 Z0.434
X4.807 Y-2.462 Z0.432
X4.776 Y-2.439 Z0.431
X4.738 Y-2.43 Z0.43
X4.7 Y-2.436 Z0.428
X4.667 Y-2.458 Z0.427
X4.646 Y-2.49 Z0.426
X4.64 Y-2.528 Z0.424
X4.649 Y-2.566 Z0.423
X4.673 Y-2.597 Z0.421
X4.707 Y-2.616 Z0.42
X4.745 Y-2.619 Z0.419
X4.782 Y-2.607 Z0.417
X4.811 Y-2.581 Z0.416
X4.827 Y-2.546 Z0.415
X4.828 Y-2.507 Z0.413
X4.813 Y-2.471 Z0.412
X4.785 Y-2.444 Z0.411
X4.749 Y-2.431 Z0.409
X4.71 Y-2.433 Z0.408
X4.676 Y-2.45 Z0.406
X4.651 Y-2.48 Z0.405
X4.64 Y-2.517 Z0.404
X4.645 Y-2.556 Z0.402
X4.665 Y-2.589 Z0.401
X4.696 Y-2.612 Z0.4
X4.734 Y-2.62 Z0.398
X4.772 Y-2.612 Z0.397
X4.804 Y-2.59 Z0.396
X4.824 Y-2.556 Z0.394
X4.83 Y-2.518 Z0.393
X4.819 Y-2.481 Z0.391
X4.794 Y-2.451 Z0.39
X4.76 Y-2.433 Z0.389
X4.721 Y-2.431 Z0.387
X4.685 Y-2.444 Z0.386
X4.657 Y-2.471 Z0.385
X4.642 Y-2.506 Z0.383
Y-2.545 Z0.382
X4.658 Y-2.581 Z0.381
X4.687 Y-2.607 Z0.379
X4.723 Y-2.619 Z0.378
X4.762 Y-2.616 Z0.376
X4.796 Y-2.597 Z0.375
X4.82 Y-2.567 Z0.374
X4.83 Y-2.529 Z0.372
X4.823 Y-2.491 Z0.371
X4.803 Y-2.458 Z0.37
X4.77 Y-2.437 Z0.368
X4.732 Y-2.43 Z0.367
X4.694 Y-2.439 Z0.366
X4.663 Y-2.462 Z0.364
X4.644 Y-2.496 Z0.363
X4.64 Y-2.534 Z0.361
X4.652 Y-2.571 Z0.36
X4.677 Y-2.6 Z0.359
X4.713 Y-2.617 Z0.357
X4.751 Y-2.618 Z0.356
X4.787 Y-2.604 Z0.355
X4.815 Y-2.576 Z0.353
X4.828 Y-2.54 Z0.352
X4.827 Y-2.501 Z0.351
X4.81 Y-2.466 Z0.349
X4.78 Y-2.441 Z0.348
X4.743 Y-2.43 Z0.346
X4.705 Y-2.435 Z0.345
X4.671 Y-2.454 Z0.344
X4.648 Y-2.485 Z0.342
X4.64 Y-2.523 Z0.341
X4.647 Y-2.561 Z0.34
X4.669 Y-2.593 Z0.338
X4.702 Y-2.614 Z0.337
X4.74 Y-2.62 Z0.336
X4.778 Y-2.609 Z0.334
X4.808 Y-2.585 Z0.333
X4.826 Y-2.551 Z0.331
X4.829 Y-2.512 Z0.33
X4.816 Y-2.476 Z0.329
X4.79 Y-2.447 Z0.327
X4.754 Y-2.432 Z0.326
X4.715 Z0.325
X4.68 Y-2.447 Z0.323
X4.653 Y-2.476 Z0.322
X4.641 Y-2.512 Z0.321
X4.643 Y-2.551 Z0.319
X4.662 Y-2.585 Z0.318
X4.692 Y-2.609 Z0.316
X4.729 Y-2.62 Z0.315
X4.768 Y-2.614 Z0.314
X4.8 Y-2.593 Z0.312
X4.822 Y-2.561 Z0.311
X4.83 Y-2.523 Z0.31
X4.821 Y-2.485 Z0.308
X4.798 Y-2.454 Z0.307
X4.765 Y-2.435 Z0.306
X4.726 Y-2.43 Z0.304
X4.689 Y-2.441 Z0.303
X4.66 Y-2.467 Z0.301
X4.643 Y-2.501 Z0.3
X4.641 Y-2.54 Z0.299
X4.655 Y-2.576 Z0.297
X4.682 Y-2.604 Z0.296
X4.718 Y-2.618 Z0.295
X4.757 Y-2.617 Z0.293
X4.792 Y-2.6 Z0.292
X4.818 Y-2.571 Z0.291
X4.829 Y-2.534 Z0.289
X4.825 Y-2.496 Z0.288
X4.806 Y-2.462 Z0.286
X4.775 Y-2.439 Z0.285
X4.737 Y-2.43 Z0.284
X4.699 Y-2.437 Z0.282
X4.667 Y-2.458 Z0.281
X4.646 Y-2.491 Z0.28
X4.64 Y-2.529 Z0.278
X4.65 Y-2.567 Z0.277
X4.673 Y-2.597 Z0.276
X4.707 Y-2.616 Z0.274
X4.746 Y-2.619 Z0.273
X4.783 Y-2.607 Z0.271
X4.812 Y-2.581 Z0.27
X4.828 Y-2.545 Z0.269
Y-2.506 Z0.267
X4.813 Y-2.471 Z0.266
X4.785 Y-2.444 Z0.265
X4.748 Y-2.431 Z0.263
X4.71 Y-2.433 Z0.262
X4.675 Y-2.451 Z0.261
X4.651 Y-2.481 Z0.259
X4.64 Y-2.518 Z0.258
X4.645 Y-2.556 Z0.256
X4.665 Y-2.59 Z0.255
X4.697 Y-2.612 Z0.254
X4.735 Y-2.62 Z0.252
X4.773 Y-2.612 Z0.251
X4.805 Y-2.589 Z0.25
X4.824 Y-2.556 Z0.248
X4.829 Y-2.517 Z0.247
X4.819 Y-2.48 Z0.246
X4.794 Y-2.45 Z0.244
X4.759 Y-2.433 Z0.243
X4.72 Y-2.431 Z0.241
X4.684 Y-2.444 Z0.24
X4.656 Y-2.471 Z0.239
X4.641 Y-2.507 Z0.237
X4.642 Y-2.546 Z0.236
X4.658 Y-2.581 Z0.235
X4.687 Y-2.607 Z0.233
X4.724 Y-2.619 Z0.232
X4.763 Y-2.616 Z0.231
X4.797 Y-2.597 Z0.229
X4.82 Y-2.566 Z0.228
X4.83 Y-2.528 Z0.226
X4.823 Y-2.49 Z0.225
X4.802 Y-2.458 Z0.224
X4.77 Y-2.436 Z0.222
X4.731 Y-2.43 Z0.221
X4.694 Y-2.439 Z0.22
X4.663 Y-2.462 Z0.218
X4.644 Y-2.496 Z0.217
X4.64 Y-2.535 Z0.216
X4.652 Y-2.572 Z0.214
X4.678 Y-2.601 Z0.213
X4.713 Y-2.617 Z0.211
X4.752 Y-2.618 Z0.21
X4.788 Y-2.603 Z0.209
X4.815 Y-2.576 Z0.207
X4.829 Y-2.539 Z0.206
X4.827 Y-2.501 Z0.205
X4.809 Y-2.466 Z0.203
X4.78 Y-2.441 Z0.202
X4.743 Y-2.43 Z0.201
X4.704 Y-2.435 Z0.199
X4.671 Y-2.455 Z0.198
X4.648 Y-2.486 Z0.196
X4.64 Y-2.524 Z0.195
X4.647 Y-2.562 Z0.194
X4.67 Y-2.594 Z0.192
X4.703 Y-2.614 Z0.191
X4.741 Y-2.62 Z0.19
X4.778 Y-2.609 Z0.188
X4.808 Y-2.585 Z0.187
X4.826 Y-2.55 Z0.186
X4.829 Y-2.512 Z0.184
X4.816 Y-2.475 Z0.183
X4.789 Y-2.447 Z0.181
X4.753 Y-2.432 Z0.18
X4.715 Z0.179
X4.679 Y-2.448 Z0.177
X4.653 Y-2.476 Z0.176
X4.64 Y-2.513 Z0.175
X4.644 Y-2.552 Z0.173
X4.662 Y-2.586 Z0.172
X4.692 Y-2.61 Z0.171
X4.73 Y-2.62 Z0.169
X4.768 Y-2.614 Z0.168
X4.801 Y-2.593 Z0.166
X4.823 Y-2.561 Z0.165
X4.83 Y-2.523 Z0.164
X4.821 Y-2.485 Z0.162
X4.798 Y-2.454 Z0.161
X4.764 Y-2.434 Z0.16
X4.726 Y-2.43 Z0.158
X4.689 Y-2.442 Z0.157
X4.659 Y-2.467 Z0.156
X4.642 Y-2.502 Z0.154
X4.641 Y-2.541 Z0.153
X4.655 Y-2.577 Z0.151
X4.683 Y-2.604 Z0.15
X4.719 Y-2.618 Z0.149
X4.758 Y-2.617 Z0.147
X4.793 Y-2.6 Z0.146
X4.818 Y-2.571 Z0.145
X4.829 Y-2.534 Z0.143
X4.825 Y-2.495 Z0.142
X4.806 Y-2.461 Z0.141
X4.774 Y-2.438 Z0.139
X4.737 Y-2.43 Z0.138
X4.699 Y-2.437 Z0.136
X4.666 Y-2.459 Z0.135
X4.646 Y-2.491 Z0.134
X4.64 Y-2.53 Z0.132
X4.65 Y-2.567 Z0.131
X4.674 Y-2.598 Z0.13
X4.708 Y-2.616 Z0.128
X4.747 Y-2.619 Z0.127
X4.783 Y-2.606 Z0.126
X4.812 Y-2.58 Z0.124
X4.828 Y-2.545 Z0.123
Y-2.506 Z0.121
X4.813 Y-2.47 Z0.12
X4.784 Y-2.444 Z0.119
X4.748 Y-2.431 Z0.117
X4.709 Y-2.433 Z0.116
X4.675 Y-2.451 Z0.115
X4.65 Y-2.481 Z0.113
X4.64 Y-2.519 Z0.112
X4.645 Y-2.557 Z0.111
X4.666 Y-2.59 Z0.109
X4.698 Y-2.612 Z0.108
X4.736 Y-2.62 Z0.106
X4.774 Y-2.611 Z0.105
X4.805 Y-2.589 Z0.104
X4.825 Y-2.555 Z0.102
X4.829 Y-2.517 Z0.101
X4.818 Y-2.48 Z0.1
X4.793 Y-2.45 Z0.098
X4.759 Y-2.433 Z0.097
X4.72 Y-2.431 Z0.096
X4.684 Y-2.445 Z0.094
X4.656 Y-2.472 Z0.093
X4.641 Y-2.508 Z0.091
X4.642 Y-2.546 Z0.09
X4.659 Y-2.582 Z0.089
X4.688 Y-2.607 Z0.087
X4.725 Y-2.619 Z0.086
X4.763 Y-2.615 Z0.085
X4.797 Y-2.596 Z0.083
X4.821 Y-2.565 Z0.082
X4.83 Y-2.528 Z0.081
X4.823 Y-2.49 Z0.079
X4.802 Y-2.457 Z0.078
X4.769 Y-2.436 Z0.076
X4.731 Y-2.43 Z0.075
X4.693 Y-2.439 Z0.074
X4.663 Y-2.463 Z0.072
X4.644 Y-2.497 Z0.071
X4.64 Y-2.536 Z0.07
X4.653 Y-2.572 Z0.068
X4.678 Y-2.601 Z0.067
X4.714 Y-2.617 Z0.066
X4.753 Y-2.618 Z0.064
X4.788 Y-2.603 Z0.063
X4.815 Y-2.575 Z0.061
X4.829 Y-2.539 Z0.06
X4.826 Y-2.5 Z0.059
X4.809 Y-2.465 Z0.057
X4.779 Y-2.441 Z0.056
X4.742 Y-2.43 Z0.055
X4.703 Y-2.435 Z0.053
X4.67 Y-2.455 Z0.052
X4.648 Y-2.487 Z0.051
X4.64 Y-2.525 Z0.049
X4.648 Y-2.563 Z0.048
X4.67 Y-2.594 Z0.046
X4.703 Y-2.614 Z0.045
X4.742 Y-2.619 Z0.044
X4.779 Y-2.609 Z0.042
X4.809 Y-2.584 Z0.041
X4.826 Y-2.55 Z0.04
X4.829 Y-2.511 Z0.038
X4.815 Y-2.474 Z0.037
X4.789 Y-2.446 Z0.036
X4.753 Y-2.431 Z0.034
X4.714 Y-2.432 Z0.033
X4.679 Y-2.448 Z0.031
X4.653 Y-2.477 Z0.03
X4.64 Y-2.514 Z0.029
X4.644 Y-2.552 Z0.027
X4.662 Y-2.586 Z0.026
X4.693 Y-2.61 Z0.025
X4.731 Y-2.62 Z0.023
X4.769 Y-2.613 Z0.022
X4.801 Y-2.592 Z0.021
X4.823 Y-2.56 Z0.019
X4.83 Y-2.522 Z0.018
X4.821 Y-2.484 Z0.016
X4.797 Y-2.453 Z0.015
X4.764 Y-2.434 Z0.014
X4.725 Y-2.43 Z0.012
X4.688 Y-2.442 Z0.011
X4.659 Y-2.468 Z0.01
X4.642 Y-2.503 Z0.008
X4.641 Y-2.541 Z0.007
X4.656 Y-2.577 Z0.006
X4.683 Y-2.605 Z0.004
X4.72 Y-2.618 Z0.003
X4.758 Y-2.617 Z0.001
X4.793 Y-2.6 Z0
X4.818 Y-2.57 Z-0.001
X4.829 Y-2.533 Z-0.003
X4.825 Y-2.494 Z-0.004
X4.805 Y-2.461 Z-0.005
X4.774 Y-2.438 Z-0.007
X4.736 Y-2.43 Z-0.008
X4.698 Y-2.437 Z-0.009
X4.666 Y-2.459 Z-0.011
X4.646 Y-2.492 Z-0.012
X4.64 Y-2.53 Z-0.014
X4.65 Y-2.568 Z-0.015
X4.674 Y-2.598 Z-0.016
X4.709 Y-2.616 Z-0.018
X4.747 Y-2.619 Z-0.019
X4.784 Y-2.606 Z-0.02
X4.812 Y-2.579 Z-0.022
X4.828 Y-2.544 Z-0.023
Y-2.505 Z-0.025
X4.812 Y-2.47 Z-0.026
X4.784 Y-2.443 Z-0.027
X4.747 Y-2.431 Z-0.029
X4.708 Y-2.433 Z-0.03
X4.674 Y-2.452 Z-0.031
X4.65 Y-2.482 Z-0.033
X4.64 Y-2.519 Z-0.034
X4.646 Y-2.558 Z-0.035
X4.666 Y-2.591 Z-0.037
X4.698 Y-2.612 Z-0.038
X4.736 Y-2.62 Z-0.04
X4.774 Y-2.611 Z-0.041
X4.805 Y-2.588 Z-0.042
X4.825 Y-2.555 Z-0.044
X4.829 Y-2.516 Z-0.045
X4.818 Y-2.479 Z-0.046
X4.793 Y-2.45 Z-0.048
X4.758 Y-2.433 Z-0.049
X4.719 Y-2.431 Z-0.05
X4.683 Y-2.445 Z-0.052
X4.655 Y-2.472 Z-0.053
X4.641 Y-2.508 Z-0.055
X4.642 Y-2.547 Z-0.056
X4.659 Y-2.582 Z-0.057
X4.688 Y-2.608 Z-0.059
X4.725 Y-2.619 Z-0.06
X4.764 Y-2.615 Z-0.061
X4.798 Y-2.596 Z-0.063
X4.821 Y-2.565 Z-0.064
X4.83 Y-2.527 Z-0.065
X4.823 Y-2.489 Z-0.067
X4.801 Y-2.457 Z-0.068
X4.768 Y-2.436 Z-0.07
X4.73 Y-2.43 Z-0.071
X4.693 Y-2.44 Z-0.072
X4.662 Y-2.463 Z-0.074
X4.644 Y-2.498 Z-0.075
X4.64 Y-2.536 Z-0.076
X4.653 Y-2.573 Z-0.078
X4.679 Y-2.602 Z-0.079
X4.714 Y-2.618 Z-0.08
X4.753 Z-0.082
X4.789 Y-2.603 Z-0.083
X4.816 Y-2.575 Z-0.085
X4.829 Y-2.538 Z-0.086
X4.826 Y-2.499 Z-0.087
X4.809 Y-2.465 Z-0.089
X4.779 Y-2.44 Z-0.09
X4.741 Y-2.43 Z-0.091
X4.703 Y-2.435 Z-0.093
X4.67 Y-2.455 Z-0.094
X4.647 Y-2.487 Z-0.095
X4.64 Y-2.525 Z-0.097
X4.648 Y-2.563 Z-0.098
X4.67 Y-2.595 Z-0.1
X4.704 Y-2.615 Z-0.101
X4.742 Y-2.619 Z-0.102
X4.779 Y-2.609 Z-0.104
X4.809 Y-2.584 Z-0.105
X4.827 Y-2.549 Z-0.106
X4.829 Y-2.51 Z-0.108
X4.815 Y-2.474 Z-0.109
X4.788 Y-2.446 Z-0.11
X4.752 Y-2.431 Z-0.112
X4.713 Y-2.432 Z-0.113
X4.678 Y-2.448 Z-0.115
X4.652 Y-2.477 Z-0.116
X4.64 Y-2.514 Z-0.117
X4.644 Y-2.553 Z-0.119
X4.663 Y-2.587 Z-0.12
X4.694 Y-2.61 Z-0.121
X4.731 Y-2.62 Z-0.123
X4.769 Y-2.613 Z-0.124
X4.802 Y-2.592 Z-0.125
X4.823 Y-2.559 Z-0.127
X4.83 Y-2.521 Z-0.128
X4.82 Y-2.484 Z-0.13
X4.797 Y-2.453 Z-0.131
X4.763 Y-2.434 Z-0.132
X4.724 Y-2.43 Z-0.134
X4.687 Y-2.442 Z-0.135
X4.658 Y-2.468 Z-0.136
X4.642 Y-2.503 Z-0.138
X4.641 Y-2.542 Z-0.139
X4.656 Y-2.578 Z-0.14
X4.684 Y-2.605 Z-0.142
X4.72 Y-2.619 Z-0.143
X4.759 Y-2.617 Z-0.145
X4.794 Y-2.599 Z-0.146
X4.819 Y-2.57 Z-0.147
X4.829 Y-2.532 Z-0.149
X4.825 Y-2.494 Z-0.15
X4.805 Y-2.461 Z-0.151
X4.773 Y-2.438 Z-0.153
X4.735 Y-2.43 Z-0.154
X4.697 Y-2.437 Z-0.155
X4.666 Y-2.46 Z-0.157
X4.645 Y-2.493 Z-0.158
X4.64 Y-2.531 Z-0.16
X4.65 Y-2.568 Z-0.161
X4.675 Y-2.598 Z-0.162
X4.709 Y-2.616 Z-0.164
X4.748 Y-2.619 Z-0.165
X4.785 Y-2.606 Z-0.166
X4.813 Y-2.579 Z-0.168
X4.828 Y-2.543 Z-0.169
Y-2.505 Z-0.17
X4.812 Y-2.469 Z-0.172
X4.783 Y-2.443 Z-0.173
X4.746 Y-2.43 Z-0.175
X4.708 Y-2.434 Z-0.176
X4.674 Y-2.452 Z-0.177
X4.65 Y-2.482 Z-0.179
X4.64 Y-2.52 Z-0.18
X4.646 Y-2.558 Z-0.181
X4.667 Y-2.591 Z-0.183
X4.699 Y-2.613 Z-0.184
X4.737 Y-2.62 Z-0.185
X4.775 Y-2.611 Z-0.187
X4.806 Y-2.588 Z-0.188
X4.825 Y-2.554 Z-0.19
X4.829 Y-2.515 Z-0.191
X4.818 Y-2.478 Z-0.192
X4.792 Y-2.449 Z-0.194
X4.757 Y-2.432 Z-0.195
X4.719 Y-2.431 Z-0.196
X4.682 Y-2.445 Z-0.198
X4.655 Y-2.473 Z-0.199
X4.641 Y-2.509 Z-0.2
X4.643 Y-2.548 Z-0.202
X4.659 Y-2.583 Z-0.203
X4.689 Y-2.608 Z-0.205
X4.726 Y-2.619 Z-0.206
X4.765 Y-2.615 Z-0.207
X4.798 Y-2.596 Z-0.209
X4.821 Y-2.564 Z-0.21
X4.83 Y-2.526 Z-0.211
X4.823 Y-2.488 Z-0.213
X4.801 Y-2.456 Z-0.214
X4.768 Y-2.436 Z-0.215
X4.73 Y-2.43 Z-0.217
X4.692 Y-2.44 Z-0.218
X4.662 Y-2.464 Z-0.22
X4.644 Y-2.498 Z-0.221
X4.641 Y-2.537 Z-0.222
X4.653 Y-2.574 Z-0.224
X4.68 Y-2.602 Z-0.225
X4.715 Y-2.618 Z-0.226
X4.754 Z-0.228
X4.789 Y-2.602 Z-0.229
X4.816 Y-2.574 Z-0.23
X4.829 Y-2.538 Z-0.232
X4.826 Y-2.499 Z-0.233
X4.808 Y-2.464 Z-0.235
X4.778 Y-2.44 Z-0.236
X4.741 Y-2.43 Z-0.237
X4.702 Y-2.435 Z-0.239
X4.669 Y-2.456 Z-0.24
X4.647 Y-2.488 Z-0.241
X4.64 Y-2.526 Z-0.243
X4.648 Y-2.564 Z-0.244
X4.671 Y-2.595 Z-0.245
X4.704 Y-2.615 Z-0.247
X4.743 Y-2.619 Z-0.248
X4.78 Y-2.608 Z-0.25
X4.81 Y-2.583 Z-0.251
X4.827 Y-2.548 Z-0.252
X4.829 Y-2.51 Z-0.254
X4.815 Y-2.473 Z-0.255
X4.788 Y-2.446 Z-0.256
X4.752 Y-2.431 Z-0.258
X4.713 Y-2.432 Z-0.259
X4.678 Y-2.449 Z-0.26
X4.652 Y-2.478 Z-0.262
X4.64 Y-2.515 Z-0.263
X4.644 Y-2.553 Z-0.265
X4.663 Y-2.587 Z-0.266
X4.694 Y-2.611 Z-0.267
X4.732 Y-2.62 Z-0.269
X4.77 Y-2.613 Z-0.27
X4.802 Y-2.591 Z-0.271
X4.823 Y-2.559 Z-0.273
X4.83 Y-2.521 Z-0.274
X4.82 Y-2.483 Z-0.275
X4.796 Y-2.452 Z-0.277
X4.762 Y-2.434 Z-0.278
X4.724 Y-2.43 Z-0.28
X4.687 Y-2.443 Z-0.281
X4.658 Y-2.469 Z-0.282
X4.642 Y-2.504 Z-0.284
X4.641 Y-2.543 Z-0.285
X4.656 Y-2.578 Z-0.286
X4.684 Y-2.605 Z-0.288
X4.721 Y-2.619 Z-0.289
X4.76 Y-2.616 Z-0.29
X4.794 Y-2.599 Z-0.292
X4.819 Y-2.569 Z-0.293
X4.829 Y-2.532 Z-0.295
X4.824 Y-2.493 Z-0.296
X4.804 Y-2.46 Z-0.297
X4.773 Y-2.438 Z-0.299
X4.735 Y-2.43 Z-0.3
S700
X4.718 Y-2.434
X4.706 Y-2.446
X4.702 Y-2.463
X4.708 Y-2.482
X4.725 Y-2.494
X4.745
X4.761 Y-2.482
X4.768 Y-2.463
X4.763 Y-2.446
X4.751 Y-2.434
X4.735 Y-2.43
X4.712 Y-2.424
X4.695 Y-2.408
X4.681 Y-2.398
X4.663
X4.649 Y-2.409
X4.638 Y-2.435
X4.634 Y-2.463
X4.642 Y-2.501
X4.663 Y-2.534
X4.696 Y-2.556
X4.735 Y-2.564
X4.773 Y-2.556
X4.806 Y-2.534
X4.828 Y-2.501
X4.836 Y-2.463
X4.829 Y-2.426
X4.809 Y-2.395
X4.78 Y-2.372
X4.744 Y-2.362
X4.708 Y-2.365
X4.674 Y-2.382
X4.649 Y-2.409
X4.63 Y-2.431
X4.604 Y-2.445
X4.575 Y-2.45
X4.552 Y-2.455
X4.533 Y-2.47
X4.522 Y-2.492
X4.523 Y-2.516
G3 X4.953 Y-2.463 I0.212 J0.053
X4.516 Y-2.463 I-0.218 J0
G1 X4.523 Y-2.516
X4.522 Y-2.542
X4.508 Y-2.563
X4.497 Y-2.578
X4.495 Y-2.595
X4.5 Y-2.612
G3 X5.013 Y-2.463 I0.234 J0.15
X4.457 Y-2.463 I-0.278 J0
G1 X4.462 Y-2.515
X4.476 Y-2.565
X4.5 Y-2.612
X4.512 Y-2.64
Y-2.669
X4.502 Y-2.697
X4.494 Y-2.727
X4.501 Y-2.757
X4.521 Y-2.78
G3 X5.117 Y-2.463 I0.214 J0.317
X4.352 Y-2.463 I-0.382 J0
X4.521 Y-2.78 I0.382 J0
G1 X4.549 Y-2.808
X4.566 Y-2.844
X4.569 Y-2.883
X4.571 Y-2.915
X4.584 Y-2.943
X4.607 Y-2.964
X4.636 Y-2.976
G3 X5.257 Y-2.463 I0.099 J0.513
X4.212 Y-2.463 I-0.522 J0
X4.636 Y-2.976 I0.522 J0
G1 X4.646 Y-2.975 Z-0.297
X4.652 Y-2.972 Z-0.29
X4.654 Y-2.97 Z-0.28
G0 Z5
X2.635 Y-0.382
G1 Z2.52 F100
S700
X2.634 Y-0.384 Z2.513
X2.631 Y-0.387 Z2.506
X2.628 Y-0.392 Z2.502
X2.624 Y-0.398 Z2.5
X2.612 Y-0.435 Z2.499
X2.617 Y-0.474 Z2.497
X2.637 Y-0.507 Z2.496
X2.668 Y-0.53 Z2.495
X2.706 Y-0.539 Z2.493
X2.744 Y-0.531 Z2.492
X2.776 Y-0.509 Z2.49
X2.796 Y-0.476 Z2.489
X2.802 Y-0.438 Z2.488
X2.792 Y-0.401 Z2.486
X2.767 Y-0.37 Z2.485
X2.733 Y-0.352 Z2.484
X2.694 Y-0.35 Z2.482
X2.658 Y-0.362 Z2.481
X2.629 Y-0.389 Z2.48
X2.614 Y-0.425 Z2.478
Y-0.463 Z2.477
X2.63 Y-0.499 Z2.475
X2.658 Y-0.525 Z2.474
X2.695 Y-0.538 Z2.473
X2.733 Y-0.535 Z2.471
X2.768 Y-0.517 Z2.47
X2.792 Y-0.487 Z2.469
X2.802 Y-0.449 Z2.467
X2.796 Y-0.411 Z2.466
X2.776 Y-0.378 Z2.465
X2.744 Y-0.356 Z2.463
X2.705 Y-0.349 Z2.462
X2.668 Y-0.357 Z2.46
X2.636 Y-0.38 Z2.459
X2.617 Y-0.414 Z2.458
X2.612 Y-0.452 Z2.456
X2.624 Y-0.489 Z2.455
X2.649 Y-0.519 Z2.454
X2.684 Y-0.536 Z2.452
X2.723 Y-0.537 Z2.451
X2.759 Y-0.523 Z2.45
X2.786 Y-0.496 Z2.448
X2.801 Y-0.46 Z2.447
X2.799 Y-0.421 Z2.445
X2.783 Y-0.386 Z2.444
X2.754 Y-0.361 Z2.443
X2.717 Y-0.349 Z2.441
X2.678 Y-0.353 Z2.44
X2.644 Y-0.373 Z2.439
X2.621 Y-0.404 Z2.437
X2.612 Y-0.441 Z2.436
X2.619 Y-0.479 Z2.435
X2.641 Y-0.512 Z2.433
X2.673 Y-0.533 Z2.432
X2.712 Y-0.539 Z2.43
X2.749 Y-0.529 Z2.429
X2.78 Y-0.505 Z2.428
X2.798 Y-0.471 Z2.426
X2.801 Y-0.432 Z2.425
X2.789 Y-0.395 Z2.424
X2.763 Y-0.367 Z2.422
X2.727 Y-0.351 Z2.421
X2.689 Z2.42
X2.653 Y-0.366 Z2.418
X2.626 Y-0.394 Z2.417
X2.613 Y-0.43 Z2.415
X2.616 Y-0.469 Z2.414
X2.633 Y-0.503 Z2.413
X2.663 Y-0.528 Z2.411
X2.701 Y-0.539 Z2.41
X2.739 Y-0.533 Z2.409
X2.772 Y-0.513 Z2.407
X2.794 Y-0.481 Z2.406
X2.802 Y-0.443 Z2.405
X2.794 Y-0.405 Z2.403
X2.771 Y-0.374 Z2.402
X2.738 Y-0.354 Z2.4
X2.7 Y-0.349 Z2.399
X2.662 Y-0.36 Z2.398
X2.633 Y-0.385 Z2.396
X2.615 Y-0.419 Z2.395
X2.613 Y-0.458 Z2.394
X2.627 Y-0.494 Z2.392
X2.654 Y-0.522 Z2.391
X2.69 Y-0.537 Z2.39
X2.728 Y-0.536 Z2.388
X2.764 Y-0.52 Z2.387
X2.789 Y-0.491 Z2.385
X2.802 Y-0.454 Z2.384
X2.798 Y-0.416 Z2.383
X2.779 Y-0.382 Z2.381
X2.748 Y-0.358 Z2.38
X2.711 Y-0.349 Z2.379
X2.672 Y-0.355 Z2.377
X2.64 Y-0.377 Z2.376
X2.619 Y-0.409 Z2.375
X2.612 Y-0.447 Z2.373
X2.621 Y-0.485 Z2.372
X2.645 Y-0.516 Z2.37
X2.679 Y-0.534 Z2.369
X2.718 Y-0.538 Z2.368
X2.754 Y-0.526 Z2.366
X2.783 Y-0.5 Z2.365
X2.8 Y-0.465 Z2.364
X2.801 Y-0.426 Z2.362
X2.786 Y-0.391 Z2.361
X2.758 Y-0.363 Z2.36
X2.722 Y-0.35 Z2.358
X2.683 Y-0.352 Z2.357
X2.648 Y-0.369 Z2.355
X2.623 Y-0.399 Z2.354
X2.612 Y-0.436 Z2.353
X2.617 Y-0.475 Z2.351
X2.637 Y-0.508 Z2.35
X2.669 Y-0.531 Z2.349
X2.706 Y-0.539 Z2.347
X2.744 Y-0.531 Z2.346
X2.776 Y-0.509 Z2.345
X2.797 Y-0.476 Z2.343
X2.802 Y-0.437 Z2.342
X2.791 Y-0.4 Z2.34
X2.767 Y-0.37 Z2.339
X2.732 Y-0.352 Z2.338
X2.694 Y-0.35 Z2.336
X2.657 Y-0.363 Z2.335
X2.629 Y-0.389 Z2.334
X2.614 Y-0.425 Z2.332
Y-0.464 Z2.331
X2.63 Y-0.499 Z2.33
X2.659 Y-0.525 Z2.328
X2.695 Y-0.538 Z2.327
X2.734 Y-0.535 Z2.325
X2.768 Y-0.516 Z2.324
X2.792 Y-0.486 Z2.323
X2.802 Y-0.448 Z2.321
X2.796 Y-0.41 Z2.32
X2.775 Y-0.377 Z2.319
X2.743 Y-0.356 Z2.317
X2.705 Y-0.349 Z2.316
X2.667 Y-0.358 Z2.315
X2.636 Y-0.381 Z2.313
X2.617 Y-0.414 Z2.312
X2.613 Y-0.453 Z2.31
X2.624 Y-0.49 Z2.309
X2.65 Y-0.519 Z2.308
X2.685 Y-0.536 Z2.306
X2.723 Y-0.537 Z2.305
X2.759 Y-0.523 Z2.304
X2.787 Y-0.496 Z2.302
X2.801 Y-0.459 Z2.301
X2.799 Y-0.421 Z2.3
X2.782 Y-0.386 Z2.298
X2.753 Y-0.361 Z2.297
X2.716 Y-0.349 Z2.295
X2.677 Y-0.354 Z2.294
X2.644 Y-0.373 Z2.293
X2.621 Y-0.404 Z2.291
X2.612 Y-0.442 Z2.29
X2.619 Y-0.48 Z2.289
X2.641 Y-0.512 Z2.287
X2.674 Y-0.533 Z2.286
X2.712 Y-0.539 Z2.285
X2.75 Y-0.529 Z2.283
X2.78 Y-0.504 Z2.282
X2.798 Y-0.47 Z2.28
X2.801 Y-0.432 Z2.279
X2.789 Y-0.395 Z2.278
X2.762 Y-0.366 Z2.276
X2.727 Y-0.351 Z2.275
X2.688 Z2.274
X2.652 Y-0.366 Z2.272
X2.626 Y-0.394 Z2.271
X2.613 Y-0.431 Z2.27
X2.616 Y-0.47 Z2.268
X2.634 Y-0.504 Z2.267
X2.664 Y-0.528 Z2.265
X2.701 Y-0.539 Z2.264
X2.74 Y-0.533 Z2.263
X2.773 Y-0.513 Z2.261
X2.795 Y-0.481 Z2.26
X2.802 Y-0.443 Z2.259
X2.794 Y-0.405 Z2.257
X2.771 Y-0.373 Z2.256
X2.737 Y-0.354 Z2.255
X2.699 Y-0.349 Z2.253
X2.662 Y-0.36 Z2.252
X2.632 Y-0.385 Z2.25
X2.615 Y-0.42 Z2.249
X2.613 Y-0.459 Z2.248
X2.627 Y-0.495 Z2.246
X2.654 Y-0.523 Z2.245
X2.69 Y-0.537 Z2.244
X2.729 Y-0.536 Z2.242
X2.764 Y-0.52 Z2.241
X2.79 Y-0.491 Z2.24
X2.802 Y-0.454 Z2.238
X2.798 Y-0.415 Z2.237
X2.779 Y-0.381 Z2.235
X2.748 Y-0.358 Z2.234
X2.71 Y-0.349 Z2.233
X2.672 Y-0.356 Z2.231
X2.64 Y-0.377 Z2.23
X2.618 Y-0.41 Z2.229
X2.612 Y-0.448 Z2.227
X2.622 Y-0.485 Z2.226
X2.646 Y-0.516 Z2.225
X2.68 Y-0.535 Z2.223
X2.718 Y-0.538 Z2.222
X2.755 Y-0.526 Z2.22
X2.784 Y-0.5 Z2.219
X2.8 Y-0.465 Z2.218
Y-0.426 Z2.216
X2.785 Y-0.39 Z2.215
X2.757 Y-0.363 Z2.214
X2.721 Y-0.35 Z2.212
X2.682 Y-0.352 Z2.211
X2.648 Y-0.37 Z2.209
X2.623 Y-0.399 Z2.208
X2.612 Y-0.437 Z2.207
X2.617 Y-0.475 Z2.205
X2.638 Y-0.508 Z2.204
X2.669 Y-0.531 Z2.203
X2.707 Y-0.539 Z2.201
X2.745 Y-0.531 Z2.2
X2.777 Y-0.508 Z2.199
X2.797 Y-0.475 Z2.197
X2.802 Y-0.437 Z2.196
X2.791 Y-0.399 Z2.194
X2.766 Y-0.37 Z2.193
X2.732 Y-0.352 Z2.192
X2.693 Y-0.35 Z2.19
X2.657 Y-0.363 Z2.189
X2.629 Y-0.39 Z2.188
X2.614 Y-0.426 Z2.186
Y-0.465 Z2.185
X2.63 Y-0.5 Z2.184
X2.659 Y-0.526 Z2.182
X2.696 Y-0.538 Z2.181
X2.735 Y-0.535 Z2.179
X2.769 Y-0.516 Z2.178
X2.792 Y-0.485 Z2.177
X2.802 Y-0.448 Z2.175
X2.796 Y-0.41 Z2.174
X2.775 Y-0.377 Z2.173
X2.742 Y-0.356 Z2.171
X2.704 Y-0.349 Z2.17
X2.666 Y-0.358 Z2.169
X2.636 Y-0.381 Z2.167
X2.617 Y-0.415 Z2.166
X2.613 Y-0.454 Z2.164
X2.624 Y-0.491 Z2.163
X2.65 Y-0.52 Z2.162
X2.685 Y-0.536 Z2.16
X2.724 Y-0.537 Z2.159
X2.76 Y-0.523 Z2.158
X2.787 Y-0.495 Z2.156
X2.801 Y-0.459 Z2.155
X2.799 Y-0.42 Z2.154
X2.782 Y-0.385 Z2.152
X2.752 Y-0.36 Z2.151
X2.715 Y-0.349 Z2.149
X2.677 Y-0.354 Z2.148
X2.643 Y-0.373 Z2.147
X2.62 Y-0.405 Z2.145
X2.612 Y-0.443 Z2.144
X2.62 Y-0.481 Z2.143
X2.642 Y-0.513 Z2.141
X2.675 Y-0.533 Z2.14
X2.713 Y-0.539 Z2.139
X2.75 Y-0.528 Z2.137
X2.781 Y-0.504 Z2.136
X2.799 Y-0.47 Z2.134
X2.801 Y-0.431 Z2.133
X2.788 Y-0.394 Z2.132
X2.762 Y-0.366 Z2.13
X2.726 Y-0.351 Z2.129
X2.687 Z2.128
X2.652 Y-0.366 Z2.126
X2.626 Y-0.395 Z2.125
X2.613 Y-0.432 Z2.124
X2.616 Y-0.47 Z2.122
X2.634 Y-0.504 Z2.121
X2.664 Y-0.529 Z2.119
X2.702 Y-0.539 Z2.118
X2.74 Y-0.533 Z2.117
X2.773 Y-0.512 Z2.115
X2.795 Y-0.48 Z2.114
X2.802 Y-0.442 Z2.113
X2.793 Y-0.404 Z2.111
X2.77 Y-0.373 Z2.11
X2.737 Y-0.354 Z2.109
X2.698 Y-0.349 Z2.107
X2.661 Y-0.361 Z2.106
X2.632 Y-0.386 Z2.104
X2.615 Y-0.421 Z2.103
X2.613 Y-0.459 Z2.102
X2.628 Y-0.496 Z2.1
X2.655 Y-0.523 Z2.099
X2.691 Y-0.537 Z2.098
X2.73 Y-0.536 Z2.096
X2.765 Y-0.519 Z2.095
X2.79 Y-0.49 Z2.094
X2.802 Y-0.453 Z2.092
X2.797 Y-0.414 Z2.091
X2.778 Y-0.381 Z2.089
X2.747 Y-0.358 Z2.088
X2.709 Y-0.349 Z2.087
X2.671 Y-0.356 Z2.085
X2.639 Y-0.377 Z2.084
X2.618 Y-0.41 Z2.083
X2.612 Y-0.448 Z2.081
X2.622 Y-0.486 Z2.08
X2.646 Y-0.516 Z2.079
X2.68 Y-0.535 Z2.077
X2.719 Y-0.538 Z2.076
X2.756 Y-0.525 Z2.074
X2.784 Y-0.499 Z2.073
X2.8 Y-0.464 Z2.072
Y-0.425 Z2.07
X2.785 Y-0.389 Z2.069
X2.757 Y-0.363 Z2.068
X2.72 Y-0.35 Z2.066
X2.682 Y-0.352 Z2.065
X2.647 Y-0.37 Z2.064
X2.623 Y-0.4 Z2.062
X2.612 Y-0.437 Z2.061
X2.618 Y-0.476 Z2.059
X2.638 Y-0.509 Z2.058
X2.67 Y-0.531 Z2.057
X2.708 Y-0.539 Z2.055
X2.746 Y-0.531 Z2.054
X2.777 Y-0.508 Z2.053
X2.797 Y-0.475 Z2.051
X2.802 Y-0.436 Z2.05
X2.791 Y-0.399 Z2.049
X2.766 Y-0.369 Z2.047
X2.731 Y-0.352 Z2.046
X2.693 Y-0.35 Z2.044
X2.656 Y-0.364 Z2.043
X2.628 Y-0.391 Z2.042
X2.614 Y-0.426 Z2.04
X2.615 Y-0.465 Z2.039
X2.631 Y-0.5 Z2.038
X2.66 Y-0.526 Z2.036
X2.697 Y-0.538 Z2.035
X2.735 Y-0.534 Z2.034
X2.769 Y-0.516 Z2.032
X2.793 Y-0.485 Z2.031
X2.802 Y-0.447 Z2.029
X2.795 Y-0.409 Z2.028
X2.774 Y-0.376 Z2.027
X2.742 Y-0.355 Z2.025
X2.704 Y-0.349 Z2.024
X2.666 Y-0.358 Z2.023
X2.635 Y-0.382 Z2.021
X2.616 Y-0.416 Z2.02
X2.613 Y-0.454 Z2.019
X2.625 Y-0.491 Z2.017
X2.651 Y-0.52 Z2.016
X2.686 Y-0.536 Z2.014
X2.725 Y-0.537 Z2.013
X2.76 Y-0.522 Z2.012
X2.787 Y-0.494 Z2.01
X2.801 Y-0.458 Z2.009
X2.799 Y-0.419 Z2.008
X2.782 Y-0.385 Z2.006
X2.752 Y-0.36 Z2.005
X2.715 Y-0.349 Z2.004
X2.676 Y-0.354 Z2.002
X2.643 Y-0.374 Z2.001
X2.62 Y-0.405 Z1.999
X2.612 Y-0.443 Z1.998
X2.62 Y-0.481 Z1.997
X2.642 Y-0.513 Z1.995
X2.675 Y-0.533 Z1.994
X2.714 Y-0.539 Z1.993
X2.751 Y-0.528 Z1.991
X2.781 Y-0.503 Z1.99
X2.799 Y-0.469 Z1.989
X2.801 Y-0.43 Z1.987
X2.788 Y-0.394 Z1.986
X2.761 Y-0.366 Z1.984
X2.726 Y-0.351 Z1.983
X2.687 Z1.982
X2.651 Y-0.367 Z1.98
X2.625 Y-0.395 Z1.979
X2.613 Y-0.432 Z1.978
X2.616 Y-0.471 Z1.976
X2.634 Y-0.505 Z1.975
X2.665 Y-0.529 Z1.974
X2.703 Y-0.539 Z1.972
X2.741 Y-0.533 Z1.971
X2.774 Y-0.512 Z1.969
X2.795 Y-0.479 Z1.968
X2.802 Y-0.441 Z1.967
X2.793 Y-0.404 Z1.965
X2.77 Y-0.372 Z1.964
X2.736 Y-0.353 Z1.963
X2.698 Y-0.349 Z1.961
X2.661 Y-0.361 Z1.96
X2.631 Y-0.386 Z1.959
X2.615 Y-0.421 Z1.957
X2.614 Y-0.46 Z1.956
X2.628 Y-0.496 Z1.954
X2.655 Y-0.523 Z1.953
X2.692 Y-0.537 Z1.952
X2.73 Y-0.536 Z1.95
X2.765 Y-0.519 Z1.949
X2.79 Y-0.489 Z1.948
X2.802 Y-0.452 Z1.946
X2.797 Y-0.414 Z1.945
X2.778 Y-0.38 Z1.944
X2.747 Y-0.357 Z1.942
X2.709 Y-0.349 Z1.941
X2.671 Y-0.356 Z1.939
X2.639 Y-0.378 Z1.938
X2.618 Y-0.411 Z1.937
X2.612 Y-0.449 Z1.935
X2.622 Y-0.487 Z1.934
X2.646 Y-0.517 Z1.933
X2.681 Y-0.535 Z1.931
X2.719 Y-0.538 Z1.93
X2.756 Y-0.525 Z1.929
X2.785 Y-0.499 Z1.927
X2.8 Y-0.463 Z1.926
Y-0.424 Z1.924
X2.785 Y-0.389 Z1.923
X2.756 Y-0.362 Z1.922
X2.72 Y-0.35 Z1.92
X2.681 Y-0.352 Z1.919
X2.647 Y-0.37 Z1.918
X2.622 Y-0.401 Z1.916
X2.612 Y-0.438 Z1.915
X2.618 Y-0.476 Z1.914
X2.638 Y-0.509 Z1.912
X2.67 Y-0.531 Z1.911
X2.708 Y-0.539 Z1.909
X2.746 Y-0.53 Z1.908
X2.778 Y-0.507 Z1.907
X2.797 Y-0.474 Z1.905
X2.802 Y-0.435 Z1.904
X2.791 Y-0.398 Z1.903
X2.765 Y-0.369 Z1.901
X2.731 Y-0.352 Z1.9
X2.692 Y-0.35 Z1.899
X2.656 Y-0.364 Z1.897
X2.628 Y-0.391 Z1.896
X2.614 Y-0.427 Z1.894
X2.615 Y-0.466 Z1.893
X2.631 Y-0.501 Z1.892
X2.66 Y-0.526 Z1.89
X2.697 Y-0.538 Z1.889
X2.736 Y-0.534 Z1.888
X2.77 Y-0.515 Z1.886
X2.793 Y-0.484 Z1.885
X2.802 Y-0.446 Z1.884
X2.795 Y-0.408 Z1.882
X2.774 Y-0.376 Z1.881
X2.741 Y-0.355 Z1.879
X2.703 Y-0.349 Z1.878
X2.665 Y-0.358 Z1.877
X2.635 Y-0.382 Z1.875
X2.616 Y-0.416 Z1.874
X2.613 Y-0.455 Z1.873
X2.625 Y-0.492 Z1.871
X2.651 Y-0.52 Z1.87
X2.686 Y-0.536 Z1.869
X2.725 Y-0.537 Z1.867
X2.761 Y-0.522 Z1.866
X2.788 Y-0.494 Z1.864
X2.801 Y-0.457 Z1.863
X2.799 Y-0.419 Z1.862
X2.781 Y-0.384 Z1.86
X2.751 Y-0.36 Z1.859
X2.714 Y-0.349 Z1.858
X2.675 Y-0.354 Z1.856
X2.642 Y-0.374 Z1.855
X2.62 Y-0.406 Z1.854
X2.612 Y-0.444 Z1.852
X2.62 Y-0.482 Z1.851
X2.643 Y-0.513 Z1.849
X2.676 Y-0.533 Z1.848
X2.714 Y-0.538 Z1.847
X2.752 Y-0.528 Z1.845
X2.781 Y-0.503 Z1.844
X2.799 Y-0.468 Z1.843
X2.801 Y-0.43 Z1.841
X2.788 Y-0.393 Z1.84
X2.761 Y-0.365 Z1.839
X2.725 Y-0.35 Z1.837
X2.686 Y-0.351 Z1.836
X2.651 Y-0.367 Z1.834
X2.625 Y-0.396 Z1.833
X2.613 Y-0.433 Z1.832
X2.616 Y-0.471 Z1.83
X2.635 Y-0.505 Z1.829
X2.666 Y-0.529 Z1.828
X2.703 Y-0.539 Z1.826
X2.741 Y-0.532 Z1.825
X2.774 Y-0.511 Z1.824
X2.795 Y-0.479 Z1.822
X2.802 Y-0.441 Z1.821
X2.793 Y-0.403 Z1.819
X2.769 Y-0.372 Z1.818
X2.736 Y-0.353 Z1.817
X2.697 Y-0.349 Z1.815
X2.66 Y-0.361 Z1.814
X2.631 Y-0.387 Z1.813
X2.615 Y-0.422 Z1.811
X2.614 Y-0.461 Z1.81
X2.628 Y-0.497 Z1.809
X2.656 Y-0.524 Z1.807
X2.692 Y-0.538 Z1.806
X2.731 Y-0.536 Z1.804
X2.766 Y-0.518 Z1.803
X2.791 Y-0.489 Z1.802
X2.802 Y-0.452 Z1.8
X2.797 Y-0.413 Z1.799
X2.777 Y-0.38 Z1.798
X2.746 Y-0.357 Z1.796
X2.708 Y-0.349 Z1.795
X2.67 Y-0.356 Z1.794
X2.638 Y-0.378 Z1.792
X2.618 Y-0.411 Z1.791
X2.612 Y-0.45 Z1.789
X2.623 Y-0.487 Z1.788
X2.647 Y-0.517 Z1.787
X2.681 Y-0.535 Z1.785
X2.72 Y-0.538 Z1.784
X2.757 Y-0.525 Z1.783
X2.785 Y-0.498 Z1.781
X2.8 Y-0.463 Z1.78
Y-0.424 Z1.779
X2.784 Y-0.388 Z1.777
X2.756 Y-0.362 Z1.776
X2.719 Y-0.349 Z1.774
X2.68 Y-0.353 Z1.773
X2.646 Y-0.371 Z1.772
X2.622 Y-0.401 Z1.77
X2.612 Y-0.439 Z1.769
X2.618 Y-0.477 Z1.768
X2.639 Y-0.51 Z1.766
X2.671 Y-0.532 Z1.765
X2.709 Y-0.539 Z1.764
X2.747 Y-0.53 Z1.762
X2.778 Y-0.507 Z1.761
X2.797 Y-0.473 Z1.759
X2.802 Y-0.435 Z1.758
X2.79 Y-0.398 Z1.757
X2.765 Y-0.368 Z1.755
X2.73 Y-0.352 Z1.754
X2.691 Y-0.35 Z1.753
X2.655 Y-0.364 Z1.751
X2.628 Y-0.392 Z1.75
X2.613 Y-0.428 Z1.749
X2.615 Y-0.466 Z1.747
X2.632 Y-0.501 Z1.746
X2.661 Y-0.527 Z1.744
X2.698 Y-0.538 Z1.743
X2.737 Y-0.534 Z1.742
X2.77 Y-0.515 Z1.74
X2.793 Y-0.484 Z1.739
X2.802 Y-0.446 Z1.738
X2.795 Y-0.408 Z1.736
X2.773 Y-0.376 Z1.735
X2.741 Y-0.355 Z1.734
X2.702 Y-0.349 Z1.732
X2.665 Y-0.359 Z1.731
X2.634 Y-0.383 Z1.729
X2.616 Y-0.417 Z1.728
X2.613 Y-0.456 Z1.727
X2.625 Y-0.492 Z1.725
X2.652 Y-0.521 Z1.724
X2.687 Y-0.537 Z1.723
X2.726 Z1.721
X2.762 Y-0.522 Z1.72
X2.788 Y-0.493 Z1.719
X2.801 Y-0.457 Z1.717
X2.799 Y-0.418 Z1.716
X2.781 Y-0.384 Z1.714
X2.751 Y-0.359 Z1.713
X2.713 Y-0.349 Z1.712
X2.675 Y-0.354 Z1.71
X2.642 Y-0.375 Z1.709
X2.62 Y-0.407 Z1.708
X2.612 Y-0.445 Z1.706
X2.62 Y-0.482 Z1.705
X2.643 Y-0.514 Z1.704
X2.676 Y-0.534 Z1.702
X2.715 Y-0.538 Z1.701
X2.752 Y-0.527 Z1.699
X2.782 Y-0.502 Z1.698
X2.799 Y-0.468 Z1.697
X2.801 Y-0.429 Z1.695
X2.787 Y-0.393 Z1.694
X2.76 Y-0.365 Z1.693
X2.724 Y-0.35 Z1.691
X2.685 Y-0.351 Z1.69
X2.65 Y-0.368 Z1.689
X2.625 Y-0.397 Z1.687
X2.613 Y-0.434 Z1.686
X2.616 Y-0.472 Z1.684
X2.635 Y-0.506 Z1.683
X2.666 Y-0.529 Z1.682
X2.704 Y-0.539 Z1.68
X2.742 Y-0.532 Z1.679
X2.774 Y-0.511 Z1.678
X2.796 Y-0.478 Z1.676
X2.802 Y-0.44 Z1.675
X2.793 Y-0.402 Z1.674
X2.769 Y-0.372 Z1.672
X2.735 Y-0.353 Z1.671
X2.696 Y-0.349 Z1.669
X2.66 Y-0.361 Z1.668
X2.631 Y-0.387 Z1.667
X2.614 Y-0.423 Z1.665
Y-0.461 Z1.664
X2.629 Y-0.497 Z1.663
X2.657 Y-0.524 Z1.661
X2.693 Y-0.538 Z1.66
X2.732 Y-0.536 Z1.658
X2.766 Y-0.518 Z1.657
X2.791 Y-0.488 Z1.656
X2.802 Y-0.451 Z1.654
X2.797 Y-0.413 Z1.653
X2.777 Y-0.379 Z1.652
X2.745 Y-0.357 Z1.65
X2.707 Y-0.349 Z1.649
X2.669 Y-0.357 Z1.648
X2.638 Y-0.379 Z1.646
X2.618 Y-0.412 Z1.645
X2.612 Y-0.45 Z1.643
X2.623 Y-0.488 Z1.642
X2.648 Y-0.518 Z1.641
X2.682 Y-0.535 Z1.639
X2.721 Y-0.538 Z1.638
X2.757 Y-0.524 Z1.637
X2.785 Y-0.498 Z1.635
X2.8 Y-0.462 Z1.634
Y-0.423 Z1.633
X2.784 Y-0.388 Z1.631
X2.755 Y-0.362 Z1.63
X2.718 Y-0.349 Z1.628
X2.68 Y-0.353 Z1.627
X2.646 Y-0.371 Z1.626
X2.622 Y-0.402 Z1.624
X2.612 Y-0.439 Z1.623
X2.618 Y-0.478 Z1.622
X2.639 Y-0.51 Z1.62
X2.672 Y-0.532 Z1.619
X2.71 Y-0.539 Z1.618
X2.747 Y-0.53 Z1.616
X2.778 Y-0.506 Z1.615
X2.798 Y-0.473 Z1.613
X2.802 Y-0.434 Z1.612
X2.79 Y-0.397 Z1.611
X2.764 Y-0.368 Z1.609
X2.729 Y-0.351 Z1.608
X2.691 Y-0.35 Z1.607
X2.655 Y-0.365 Z1.605
X2.627 Y-0.392 Z1.604
X2.613 Y-0.428 Z1.603
X2.615 Y-0.467 Z1.601
X2.632 Y-0.502 Z1.6
X2.662 Y-0.527 Z1.598
X2.699 Y-0.538 Z1.597
X2.737 Y-0.534 Z1.596
X2.771 Y-0.514 Z1.594
X2.794 Y-0.483 Z1.593
X2.802 Y-0.445 Z1.592
X2.795 Y-0.407 Z1.59
X2.773 Y-0.375 Z1.589
X2.74 Y-0.355 Z1.588
X2.702 Y-0.349 Z1.586
X2.664 Y-0.359 Z1.585
X2.634 Y-0.383 Z1.583
X2.616 Y-0.418 Z1.582
X2.613 Y-0.456 Z1.581
X2.626 Y-0.493 Z1.579
X2.652 Y-0.521 Z1.578
X2.688 Y-0.537 Z1.577
X2.727 Z1.575
X2.762 Y-0.521 Z1.574
X2.788 Y-0.493 Z1.573
X2.801 Y-0.456 Z1.571
X2.798 Y-0.418 Z1.57
X2.78 Y-0.383 Z1.568
X2.75 Y-0.359 Z1.567
X2.713 Y-0.349 Z1.566
X2.674 Y-0.355 Z1.564
X2.641 Y-0.375 Z1.563
X2.619 Y-0.407 Z1.562
X2.612 Y-0.445 Z1.56
X2.621 Y-0.483 Z1.559
X2.644 Y-0.514 Z1.558
X2.677 Y-0.534 Z1.556
X2.716 Y-0.538 Z1.555
X2.753 Y-0.527 Z1.553
X2.782 Y-0.502 Z1.552
X2.799 Y-0.467 Z1.551
X2.801 Y-0.428 Z1.549
X2.787 Y-0.392 Z1.548
X2.76 Y-0.365 Z1.547
X2.724 Y-0.35 Z1.545
X2.685 Y-0.351 Z1.544
X2.65 Y-0.368 Z1.543
X2.624 Y-0.397 Z1.541
X2.613 Y-0.434 Z1.54
X2.617 Y-0.473 Z1.538
X2.636 Y-0.506 Z1.537
X2.667 Y-0.53 Z1.536
X2.705 Y-0.539 Z1.534
X2.743 Y-0.532 Z1.533
X2.775 Y-0.51 Z1.532
X2.796 Y-0.478 Z1.53
X2.802 Y-0.439 Z1.529
X2.792 Y-0.402 Z1.528
X2.768 Y-0.371 Z1.526
X2.734 Y-0.353 Z1.525
X2.696 Y-0.349 Z1.523
X2.659 Y-0.362 Z1.522
X2.63 Y-0.388 Z1.521
X2.614 Y-0.423 Z1.519
Y-0.462 Z1.518
X2.629 Y-0.498 Z1.517
X2.657 Y-0.524 Z1.515
X2.693 Y-0.538 Z1.514
X2.732 Y-0.535 Z1.513
X2.767 Y-0.518 Z1.511
X2.791 Y-0.488 Z1.51
X2.802 Y-0.45 Z1.508
X2.797 Y-0.412 Z1.507
X2.776 Y-0.379 Z1.506
X2.745 Y-0.357 Z1.504
X2.707 Y-0.349 Z1.503
X2.669 Y-0.357 Z1.502
X2.637 Y-0.379 Z1.5
X2.617 Y-0.413 Z1.499
X2.612 Y-0.451 Z1.498
X2.623 Y-0.488 Z1.496
X2.648 Y-0.518 Z1.495
X2.683 Y-0.536 Z1.493
X2.721 Y-0.538 Z1.492
X2.758 Y-0.524 Z1.491
X2.786 Y-0.497 Z1.489
X2.8 Y-0.461 Z1.488
Y-0.423 Z1.487
X2.784 Y-0.387 Z1.485
X2.755 Y-0.361 Z1.484
X2.718 Y-0.349 Z1.483
X2.679 Y-0.353 Z1.481
X2.645 Y-0.372 Z1.48
X2.622 Y-0.402 Z1.478
X2.612 Y-0.44 Z1.477
X2.619 Y-0.478 Z1.476
X2.64 Y-0.511 Z1.474
X2.672 Y-0.532 Z1.473
X2.71 Y-0.539 Z1.472
X2.748 Y-0.529 Z1.47
X2.779 Y-0.506 Z1.469
X2.798 Y-0.472 Z1.468
X2.802 Y-0.433 Z1.466
X2.79 Y-0.397 Z1.465
X2.764 Y-0.368 Z1.463
X2.729 Y-0.351 Z1.462
X2.69 Y-0.35 Z1.461
X2.654 Y-0.365 Z1.459
X2.627 Y-0.393 Z1.458
X2.613 Y-0.429 Z1.457
X2.615 Y-0.468 Z1.455
X2.632 Y-0.502 Z1.454
X2.662 Y-0.527 Z1.453
X2.699 Y-0.538 Z1.451
X2.738 Y-0.534 Z1.45
X2.771 Y-0.514 Z1.448
X2.794 Y-0.482 Z1.447
X2.802 Y-0.445 Z1.446
X2.795 Y-0.406 Z1.444
X2.772 Y-0.375 Z1.443
X2.739 Y-0.354 Z1.442
X2.701 Y-0.349 Z1.44
X2.664 Y-0.359 Z1.439
X2.633 Y-0.384 Z1.438
X2.616 Y-0.418 Z1.436
X2.613 Y-0.457 Z1.435
X2.626 Y-0.493 Z1.433
X2.653 Y-0.522 Z1.432
X2.688 Y-0.537 Z1.431
X2.727 Z1.429
X2.763 Y-0.521 Z1.428
X2.789 Y-0.492 Z1.427
X2.801 Y-0.456 Z1.425
X2.798 Y-0.417 Z1.424
X2.78 Y-0.383 Z1.423
X2.749 Y-0.359 Z1.421
X2.712 Y-0.349 Z1.42
X2.674 Y-0.355 Z1.418
X2.641 Y-0.376 Z1.417
X2.619 Y-0.408 Z1.416
X2.612 Y-0.446 Z1.414
X2.621 Y-0.484 Z1.413
X2.644 Y-0.515 Z1.412
X2.678 Y-0.534 Z1.41
X2.716 Y-0.538 Z1.409
X2.753 Y-0.527 Z1.408
X2.783 Y-0.501 Z1.406
X2.799 Y-0.466 Z1.405
X2.801 Y-0.428 Z1.403
X2.787 Y-0.392 Z1.402
X2.759 Y-0.364 Z1.401
X2.723 Y-0.35 Z1.399
X2.684 Y-0.352 Z1.398
X2.649 Y-0.368 Z1.397
X2.624 Y-0.398 Z1.395
X2.613 Y-0.435 Z1.394
X2.617 Y-0.473 Z1.393
X2.636 Y-0.507 Z1.391
X2.667 Y-0.53 Z1.39
X2.705 Y-0.539 Z1.388
X2.743 Y-0.532 Z1.387
X2.775 Y-0.51 Z1.386
X2.796 Y-0.477 Z1.384
X2.802 Y-0.439 Z1.383
X2.792 Y-0.401 Z1.382
X2.768 Y-0.371 Z1.38
X2.734 Y-0.353 Z1.379
X2.695 Y-0.349 Z1.378
X2.658 Y-0.362 Z1.376
X2.63 Y-0.388 Z1.375
X2.614 Y-0.424 Z1.373
Y-0.463 Z1.372
X2.629 Y-0.498 Z1.371
X2.658 Y-0.525 Z1.369
X2.694 Y-0.538 Z1.368
X2.733 Y-0.535 Z1.367
X2.767 Y-0.517 Z1.365
X2.792 Y-0.487 Z1.364
X2.802 Y-0.45 Z1.363
X2.796 Y-0.411 Z1.361
X2.776 Y-0.378 Z1.36
X2.744 Y-0.356 Z1.358
X2.706 Y-0.349 Z1.357
X2.668 Y-0.357 Z1.356
X2.637 Y-0.38 Z1.354
X2.617 Y-0.413 Z1.353
X2.612 Y-0.452 Z1.352
X2.624 Y-0.489 Z1.35
X2.649 Y-0.519 Z1.349
X2.683 Y-0.536 Z1.348
X2.722 Y-0.538 Z1.346
X2.758 Y-0.524 Z1.345
X2.786 Y-0.497 Z1.343
X2.801 Y-0.461 Z1.342
X2.8 Y-0.422 Z1.341
X2.783 Y-0.387 Z1.339
X2.754 Y-0.361 Z1.338
X2.717 Y-0.349 Z1.337
X2.679 Y-0.353 Z1.335
X2.645 Y-0.372 Z1.334
X2.621 Y-0.403 Z1.333
X2.612 Y-0.441 Z1.331
X2.619 Y-0.479 Z1.33
X2.64 Y-0.511 Z1.328
X2.673 Y-0.532 Z1.327
X2.711 Y-0.539 Z1.326
X2.749 Y-0.529 Z1.324
X2.779 Y-0.505 Z1.323
X2.798 Y-0.471 Z1.322
X2.801 Y-0.433 Z1.32
X2.789 Y-0.396 Z1.319
X2.763 Y-0.367 Z1.318
X2.728 Y-0.351 Z1.316
X2.689 Y-0.35 Z1.315
X2.653 Y-0.365 Z1.313
X2.627 Y-0.393 Z1.312
X2.613 Y-0.43 Z1.311
X2.615 Y-0.468 Z1.309
X2.633 Y-0.503 Z1.308
X2.663 Y-0.528 Z1.307
X2.7 Y-0.538 Z1.305
X2.738 Y-0.533 Z1.304
X2.772 Y-0.513 Z1.303
X2.794 Y-0.482 Z1.301
X2.802 Y-0.444 Z1.3
X2.794 Y-0.406 Z1.298
X2.772 Y-0.374 Z1.297
X2.739 Y-0.354 Z1.296
X2.7 Y-0.349 Z1.294
X2.663 Y-0.36 Z1.293
X2.633 Y-0.384 Z1.292
X2.615 Y-0.419 Z1.29
X2.613 Y-0.458 Z1.289
X2.626 Y-0.494 Z1.288
X2.653 Y-0.522 Z1.286
X2.689 Y-0.537 Z1.285
X2.728 Y-0.536 Z1.283
X2.763 Y-0.52 Z1.282
X2.789 Y-0.492 Z1.281
X2.801 Y-0.455 Z1.279
X2.798 Y-0.416 Z1.278
X2.78 Y-0.382 Z1.277
X2.749 Y-0.358 Z1.275
X2.711 Y-0.349 Z1.274
X2.673 Y-0.355 Z1.273
X2.64 Y-0.376 Z1.271
X2.619 Y-0.408 Z1.27
X2.612 Y-0.447 Z1.268
X2.621 Y-0.484 Z1.267
X2.645 Y-0.515 Z1.266
X2.678 Y-0.534 Z1.264
X2.717 Y-0.538 Z1.263
X2.754 Y-0.526 Z1.262
X2.783 Y-0.501 Z1.26
X2.8 Y-0.466 Z1.259
X2.801 Y-0.427 Z1.258
X2.786 Y-0.391 Z1.256
X2.759 Y-0.364 Z1.255
X2.722 Y-0.35 Z1.253
X2.684 Y-0.352 Z1.252
X2.649 Y-0.369 Z1.251
X2.624 Y-0.398 Z1.249
X2.612 Y-0.435 Z1.248
X2.617 Y-0.474 Z1.247
X2.637 Y-0.507 Z1.245
X2.668 Y-0.53 Z1.244
X2.706 Y-0.539 Z1.243
X2.744 Y-0.531 Z1.241
X2.776 Y-0.509 Z1.24
X2.796 Y-0.476 Z1.238
X2.802 Y-0.438 Z1.237
X2.792 Y-0.401 Z1.236
X2.767 Y-0.37 Z1.234
X2.733 Y-0.352 Z1.233
X2.694 Y-0.35 Z1.232
X2.658 Y-0.362 Z1.23
X2.63 Y-0.389 Z1.229
X2.614 Y-0.425 Z1.228
Y-0.463 Z1.226
X2.63 Y-0.499 Z1.225
X2.658 Y-0.525 Z1.223
X2.695 Y-0.538 Z1.222
X2.733 Y-0.535 Z1.221
X2.768 Y-0.517 Z1.219
X2.792 Y-0.487 Z1.218
X2.802 Y-0.449 Z1.217
X2.796 Y-0.411 Z1.215
X2.776 Y-0.378 Z1.214
X2.744 Y-0.356 Z1.213
X2.705 Y-0.349 Z1.211
X2.668 Y-0.357 Z1.21
X2.636 Y-0.38 Z1.208
X2.617 Y-0.414 Z1.207
X2.612 Y-0.452 Z1.206
X2.624 Y-0.489 Z1.204
X2.649 Y-0.519 Z1.203
X2.684 Y-0.536 Z1.202
X2.723 Y-0.537 Z1.2
X2.759 Y-0.523 Z1.199
X2.786 Y-0.496 Z1.198
X2.801 Y-0.46 Z1.196
X2.799 Y-0.421 Z1.195
X2.783 Y-0.386 Z1.193
X2.754 Y-0.361 Z1.192
X2.717 Y-0.349 Z1.191
X2.678 Y-0.353 Z1.189
X2.644 Y-0.372 Z1.188
X2.621 Y-0.404 Z1.187
X2.612 Y-0.441 Z1.185
X2.619 Y-0.479 Z1.184
X2.641 Y-0.512 Z1.183
X2.673 Y-0.533 Z1.181
X2.712 Y-0.539 Z1.18
X2.749 Y-0.529 Z1.178
X2.78 Y-0.505 Z1.177
X2.798 Y-0.471 Z1.176
X2.801 Y-0.432 Z1.174
X2.789 Y-0.395 Z1.173
X2.763 Y-0.367 Z1.172
X2.727 Y-0.351 Z1.17
X2.689 Z1.169
X2.653 Y-0.366 Z1.168
X2.626 Y-0.394 Z1.166
X2.613 Y-0.43 Z1.165
X2.616 Y-0.469 Z1.163
X2.633 Y-0.503 Z1.162
X2.663 Y-0.528 Z1.161
X2.701 Y-0.539 Z1.159
X2.739 Y-0.533 Z1.158
X2.772 Y-0.513 Z1.157
X2.794 Y-0.481 Z1.155
X2.802 Y-0.443 Z1.154
X2.794 Y-0.405 Z1.153
X2.771 Y-0.374 Z1.151
X2.738 Y-0.354 Z1.15
X2.7 Y-0.349 Z1.148
X2.662 Y-0.36 Z1.147
X2.633 Y-0.385 Z1.146
X2.615 Y-0.419 Z1.144
X2.613 Y-0.458 Z1.143
X2.627 Y-0.494 Z1.142
X2.654 Y-0.522 Z1.14
X2.69 Y-0.537 Z1.139
X2.728 Y-0.536 Z1.138
X2.764 Y-0.52 Z1.136
X2.789 Y-0.491 Z1.135
X2.802 Y-0.454 Z1.133
X2.798 Y-0.416 Z1.132
X2.779 Y-0.382 Z1.131
X2.748 Y-0.358 Z1.129
X2.711 Y-0.349 Z1.128
X2.672 Y-0.355 Z1.127
X2.64 Y-0.377 Z1.125
X2.619 Y-0.409 Z1.124
X2.612 Y-0.447 Z1.123
X2.621 Y-0.485 Z1.121
X2.645 Y-0.516 Z1.12
X2.679 Y-0.534 Z1.118
X2.718 Y-0.538 Z1.117
X2.754 Y-0.526 Z1.116
X2.783 Y-0.5 Z1.114
X2.8 Y-0.465 Z1.113
X2.801 Y-0.426 Z1.112
X2.786 Y-0.391 Z1.11
X2.758 Y-0.364 Z1.109
X2.722 Y-0.35 Z1.108
X2.683 Y-0.352 Z1.106
X2.648 Y-0.369 Z1.105
X2.623 Y-0.399 Z1.103
X2.612 Y-0.436 Z1.102
X2.617 Y-0.475 Z1.101
X2.637 Y-0.508 Z1.099
X2.669 Y-0.531 Z1.098
X2.706 Y-0.539 Z1.097
X2.744 Y-0.531 Z1.095
X2.776 Y-0.509 Z1.094
X2.797 Y-0.476 Z1.092
X2.802 Y-0.437 Z1.091
X2.791 Y-0.4 Z1.09
X2.767 Y-0.37 Z1.088
X2.732 Y-0.352 Z1.087
X2.694 Y-0.35 Z1.086
X2.657 Y-0.363 Z1.084
X2.629 Y-0.389 Z1.083
X2.614 Y-0.425 Z1.082
Y-0.464 Z1.08
X2.63 Y-0.499 Z1.079
X2.659 Y-0.525 Z1.077
X2.695 Y-0.538 Z1.076
X2.734 Y-0.535 Z1.075
X2.768 Y-0.516 Z1.073
X2.792 Y-0.486 Z1.072
X2.802 Y-0.448 Z1.071
X2.796 Y-0.41 Z1.069
X2.775 Y-0.377 Z1.068
X2.743 Y-0.356 Z1.067
X2.705 Y-0.349 Z1.065
X2.667 Y-0.358 Z1.064
X2.636 Y-0.381 Z1.062
X2.617 Y-0.414 Z1.061
X2.613 Y-0.453 Z1.06
X2.624 Y-0.49 Z1.058
X2.65 Y-0.519 Z1.057
X2.685 Y-0.536 Z1.056
X2.723 Y-0.537 Z1.054
X2.759 Y-0.523 Z1.053
X2.787 Y-0.496 Z1.052
X2.801 Y-0.459 Z1.05
X2.799 Y-0.421 Z1.049
X2.782 Y-0.386 Z1.047
X2.753 Y-0.361 Z1.046
X2.716 Y-0.349 Z1.045
X2.677 Y-0.354 Z1.043
X2.644 Y-0.373 Z1.042
X2.621 Y-0.404 Z1.041
X2.612 Y-0.442 Z1.039
X2.619 Y-0.48 Z1.038
X2.641 Y-0.512 Z1.037
X2.674 Y-0.533 Z1.035
X2.712 Y-0.539 Z1.034
X2.75 Y-0.529 Z1.032
X2.78 Y-0.504 Z1.031
X2.798 Y-0.47 Z1.03
X2.801 Y-0.432 Z1.028
X2.789 Y-0.395 Z1.027
X2.762 Y-0.366 Z1.026
X2.727 Y-0.351 Z1.024
X2.688 Z1.023
X2.652 Y-0.366 Z1.022
X2.626 Y-0.394 Z1.02
X2.613 Y-0.431 Z1.019
X2.616 Y-0.47 Z1.017
X2.634 Y-0.504 Z1.016
X2.664 Y-0.528 Z1.015
X2.701 Y-0.539 Z1.013
X2.74 Y-0.533 Z1.012
X2.773 Y-0.513 Z1.011
X2.795 Y-0.481 Z1.009
X2.802 Y-0.443 Z1.008
X2.794 Y-0.405 Z1.007
X2.771 Y-0.373 Z1.005
X2.737 Y-0.354 Z1.004
X2.699 Y-0.349 Z1.002
X2.662 Y-0.36 Z1.001
X2.632 Y-0.385 Z1
X2.615 Y-0.42 Z0.998
X2.613 Y-0.459 Z0.997
X2.627 Y-0.495 Z0.996
X2.654 Y-0.523 Z0.994
X2.69 Y-0.537 Z0.993
X2.729 Y-0.536 Z0.992
X2.764 Y-0.52 Z0.99
X2.79 Y-0.491 Z0.989
X2.802 Y-0.454 Z0.987
X2.798 Y-0.415 Z0.986
X2.779 Y-0.381 Z0.985
X2.748 Y-0.358 Z0.983
X2.71 Y-0.349 Z0.982
X2.672 Y-0.356 Z0.981
X2.64 Y-0.377 Z0.979
X2.618 Y-0.41 Z0.978
X2.612 Y-0.448 Z0.977
X2.622 Y-0.485 Z0.975
X2.645 Y-0.516 Z0.974
X2.68 Y-0.535 Z0.972
X2.718 Y-0.538 Z0.971
X2.755 Y-0.526 Z0.97
X2.784 Y-0.5 Z0.968
X2.8 Y-0.465 Z0.967
Y-0.426 Z0.966
X2.785 Y-0.39 Z0.964
X2.757 Y-0.363 Z0.963
X2.721 Y-0.35 Z0.962
X2.682 Y-0.352 Z0.96
X2.648 Y-0.37 Z0.959
X2.623 Y-0.399 Z0.957
X2.612 Y-0.437 Z0.956
X2.617 Y-0.475 Z0.955
X2.638 Y-0.508 Z0.953
X2.669 Y-0.531 Z0.952
X2.707 Y-0.539 Z0.951
X2.745 Y-0.531 Z0.949
X2.777 Y-0.508 Z0.948
X2.797 Y-0.475 Z0.947
X2.802 Y-0.437 Z0.945
X2.791 Y-0.399 Z0.944
X2.766 Y-0.37 Z0.942
X2.732 Y-0.352 Z0.941
X2.693 Y-0.35 Z0.94
X2.657 Y-0.363 Z0.938
X2.629 Y-0.39 Z0.937
X2.614 Y-0.426 Z0.936
Y-0.465 Z0.934
X2.63 Y-0.5 Z0.933
X2.659 Y-0.526 Z0.932
X2.696 Y-0.538 Z0.93
X2.735 Y-0.535 Z0.929
X2.769 Y-0.516 Z0.927
X2.792 Y-0.485 Z0.926
X2.802 Y-0.448 Z0.925
X2.796 Y-0.41 Z0.923
X2.775 Y-0.377 Z0.922
X2.742 Y-0.356 Z0.921
X2.704 Y-0.349 Z0.919
X2.666 Y-0.358 Z0.918
X2.636 Y-0.381 Z0.917
X2.617 Y-0.415 Z0.915
X2.613 Y-0.454 Z0.914
X2.624 Y-0.491 Z0.912
X2.65 Y-0.52 Z0.911
X2.685 Y-0.536 Z0.91
X2.724 Y-0.537 Z0.908
X2.76 Y-0.523 Z0.907
X2.787 Y-0.495 Z0.906
X2.801 Y-0.459 Z0.904
X2.799 Y-0.42 Z0.903
X2.782 Y-0.385 Z0.902
X2.752 Y-0.36 Z0.9
X2.715 Y-0.349 Z0.899
X2.677 Y-0.354 Z0.897
X2.643 Y-0.373 Z0.896
X2.62 Y-0.405 Z0.895
X2.612 Y-0.443 Z0.893
X2.62 Y-0.481 Z0.892
X2.642 Y-0.513 Z0.891
X2.675 Y-0.533 Z0.889
X2.713 Y-0.539 Z0.888
X2.75 Y-0.528 Z0.887
X2.781 Y-0.504 Z0.885
X2.799 Y-0.47 Z0.884
X2.801 Y-0.431 Z0.882
X2.788 Y-0.394 Z0.881
X2.762 Y-0.366 Z0.88
X2.726 Y-0.351 Z0.878
X2.687 Z0.877
X2.652 Y-0.366 Z0.876
X2.626 Y-0.395 Z0.874
X2.613 Y-0.432 Z0.873
X2.616 Y-0.47 Z0.872
X2.634 Y-0.504 Z0.87
X2.664 Y-0.529 Z0.869
X2.702 Y-0.539 Z0.867
X2.74 Y-0.533 Z0.866
X2.773 Y-0.512 Z0.865
X2.795 Y-0.48 Z0.863
X2.802 Y-0.442 Z0.862
X2.793 Y-0.404 Z0.861
X2.77 Y-0.373 Z0.859
X2.737 Y-0.354 Z0.858
X2.698 Y-0.349 Z0.857
X2.661 Y-0.361 Z0.855
X2.632 Y-0.386 Z0.854
X2.615 Y-0.421 Z0.852
X2.613 Y-0.459 Z0.851
X2.628 Y-0.496 Z0.85
X2.655 Y-0.523 Z0.848
X2.691 Y-0.537 Z0.847
X2.73 Y-0.536 Z0.846
X2.765 Y-0.519 Z0.844
X2.79 Y-0.49 Z0.843
X2.802 Y-0.453 Z0.842
X2.797 Y-0.414 Z0.84
X2.778 Y-0.381 Z0.839
X2.747 Y-0.358 Z0.837
X2.709 Y-0.349 Z0.836
X2.671 Y-0.356 Z0.835
X2.639 Y-0.377 Z0.833
X2.618 Y-0.41 Z0.832
X2.612 Y-0.448 Z0.831
X2.622 Y-0.486 Z0.829
X2.646 Y-0.516 Z0.828
X2.68 Y-0.535 Z0.827
X2.719 Y-0.538 Z0.825
X2.756 Y-0.525 Z0.824
X2.784 Y-0.499 Z0.822
X2.8 Y-0.464 Z0.821
Y-0.425 Z0.82
X2.785 Y-0.389 Z0.818
X2.757 Y-0.363 Z0.817
X2.72 Y-0.35 Z0.816
X2.682 Y-0.352 Z0.814
X2.647 Y-0.37 Z0.813
X2.623 Y-0.4 Z0.812
X2.612 Y-0.437 Z0.81
X2.618 Y-0.476 Z0.809
X2.638 Y-0.509 Z0.807
X2.67 Y-0.531 Z0.806
X2.708 Y-0.539 Z0.805
X2.746 Y-0.531 Z0.803
X2.777 Y-0.508 Z0.802
X2.797 Y-0.475 Z0.801
X2.802 Y-0.436 Z0.799
X2.791 Y-0.399 Z0.798
X2.766 Y-0.369 Z0.797
X2.731 Y-0.352 Z0.795
X2.693 Y-0.35 Z0.794
X2.656 Y-0.364 Z0.792
X2.628 Y-0.391 Z0.791
X2.614 Y-0.426 Z0.79
X2.615 Y-0.465 Z0.788
X2.631 Y-0.5 Z0.787
X2.66 Y-0.526 Z0.786
X2.697 Y-0.538 Z0.784
X2.735 Y-0.534 Z0.783
X2.769 Y-0.516 Z0.782
X2.793 Y-0.485 Z0.78
X2.802 Y-0.447 Z0.779
X2.795 Y-0.409 Z0.777
X2.774 Y-0.376 Z0.776
X2.742 Y-0.355 Z0.775
X2.704 Y-0.349 Z0.773
X2.666 Y-0.358 Z0.772
X2.635 Y-0.382 Z0.771
X2.616 Y-0.416 Z0.769
X2.613 Y-0.454 Z0.768
X2.625 Y-0.491 Z0.767
X2.651 Y-0.52 Z0.765
X2.686 Y-0.536 Z0.764
X2.725 Y-0.537 Z0.762
X2.76 Y-0.522 Z0.761
X2.787 Y-0.494 Z0.76
X2.801 Y-0.458 Z0.758
X2.799 Y-0.419 Z0.757
X2.782 Y-0.385 Z0.756
X2.752 Y-0.36 Z0.754
X2.715 Y-0.349 Z0.753
X2.676 Y-0.354 Z0.752
X2.643 Y-0.374 Z0.75
X2.62 Y-0.405 Z0.749
X2.612 Y-0.443 Z0.747
X2.62 Y-0.481 Z0.746
X2.642 Y-0.513 Z0.745
X2.675 Y-0.533 Z0.743
X2.714 Y-0.539 Z0.742
X2.751 Y-0.528 Z0.741
X2.781 Y-0.503 Z0.739
X2.799 Y-0.469 Z0.738
X2.801 Y-0.43 Z0.737
X2.788 Y-0.394 Z0.735
X2.761 Y-0.366 Z0.734
X2.726 Y-0.351 Z0.732
X2.687 Z0.731
X2.651 Y-0.367 Z0.73
X2.625 Y-0.395 Z0.728
X2.613 Y-0.432 Z0.727
X2.616 Y-0.471 Z0.726
X2.634 Y-0.505 Z0.724
X2.665 Y-0.529 Z0.723
X2.703 Y-0.539 Z0.722
X2.741 Y-0.533 Z0.72
X2.774 Y-0.512 Z0.719
X2.795 Y-0.479 Z0.717
X2.802 Y-0.441 Z0.716
X2.793 Y-0.404 Z0.715
X2.77 Y-0.372 Z0.713
X2.736 Y-0.353 Z0.712
X2.698 Y-0.349 Z0.711
X2.661 Y-0.361 Z0.709
X2.631 Y-0.386 Z0.708
X2.615 Y-0.421 Z0.707
X2.614 Y-0.46 Z0.705
X2.628 Y-0.496 Z0.704
X2.655 Y-0.523 Z0.702
X2.692 Y-0.537 Z0.701
X2.73 Y-0.536 Z0.7
X2.765 Y-0.519 Z0.698
X2.79 Y-0.489 Z0.697
X2.802 Y-0.452 Z0.696
X2.797 Y-0.414 Z0.694
X2.778 Y-0.38 Z0.693
X2.747 Y-0.357 Z0.692
X2.709 Y-0.349 Z0.69
X2.671 Y-0.356 Z0.689
X2.639 Y-0.378 Z0.687
X2.618 Y-0.411 Z0.686
X2.612 Y-0.449 Z0.685
X2.622 Y-0.487 Z0.683
X2.646 Y-0.517 Z0.682
X2.681 Y-0.535 Z0.681
X2.719 Y-0.538 Z0.679
X2.756 Y-0.525 Z0.678
X2.785 Y-0.499 Z0.677
X2.8 Y-0.463 Z0.675
Y-0.424 Z0.674
X2.785 Y-0.389 Z0.672
X2.756 Y-0.362 Z0.671
X2.72 Y-0.35 Z0.67
X2.681 Y-0.352 Z0.668
X2.647 Y-0.37 Z0.667
X2.622 Y-0.401 Z0.666
X2.612 Y-0.438 Z0.664
X2.618 Y-0.476 Z0.663
X2.638 Y-0.509 Z0.662
X2.67 Y-0.531 Z0.66
X2.708 Y-0.539 Z0.659
X2.746 Y-0.53 Z0.657
X2.778 Y-0.507 Z0.656
X2.797 Y-0.474 Z0.655
X2.802 Y-0.435 Z0.653
X2.791 Y-0.398 Z0.652
X2.765 Y-0.369 Z0.651
X2.731 Y-0.352 Z0.649
X2.692 Y-0.35 Z0.648
X2.656 Y-0.364 Z0.647
X2.628 Y-0.391 Z0.645
X2.614 Y-0.427 Z0.644
X2.615 Y-0.466 Z0.642
X2.631 Y-0.501 Z0.641
X2.66 Y-0.526 Z0.64
X2.697 Y-0.538 Z0.638
X2.736 Y-0.534 Z0.637
X2.77 Y-0.515 Z0.636
X2.793 Y-0.484 Z0.634
X2.802 Y-0.446 Z0.633
X2.795 Y-0.408 Z0.632
X2.774 Y-0.376 Z0.63
X2.741 Y-0.355 Z0.629
X2.703 Y-0.349 Z0.627
X2.665 Y-0.358 Z0.626
X2.635 Y-0.382 Z0.625
X2.616 Y-0.416 Z0.623
X2.613 Y-0.455 Z0.622
X2.625 Y-0.492 Z0.621
X2.651 Y-0.52 Z0.619
X2.686 Y-0.536 Z0.618
X2.725 Y-0.537 Z0.617
X2.761 Y-0.522 Z0.615
X2.788 Y-0.494 Z0.614
X2.801 Y-0.458 Z0.612
X2.799 Y-0.419 Z0.611
X2.781 Y-0.384 Z0.61
X2.751 Y-0.36 Z0.608
X2.714 Y-0.349 Z0.607
X2.675 Y-0.354 Z0.606
X2.642 Y-0.374 Z0.604
X2.62 Y-0.406 Z0.603
X2.612 Y-0.444 Z0.602
X2.62 Y-0.482 Z0.6
X2.643 Y-0.513 Z0.599
X2.676 Y-0.533 Z0.597
X2.714 Y-0.538 Z0.596
X2.752 Y-0.528 Z0.595
X2.781 Y-0.503 Z0.593
X2.799 Y-0.468 Z0.592
X2.801 Y-0.43 Z0.591
X2.788 Y-0.393 Z0.589
X2.761 Y-0.365 Z0.588
X2.725 Y-0.35 Z0.587
X2.686 Y-0.351 Z0.585
X2.651 Y-0.367 Z0.584
X2.625 Y-0.396 Z0.582
X2.613 Y-0.433 Z0.581
X2.616 Y-0.471 Z0.58
X2.635 Y-0.505 Z0.578
X2.666 Y-0.529 Z0.577
X2.703 Y-0.539 Z0.576
X2.741 Y-0.532 Z0.574
X2.774 Y-0.511 Z0.573
X2.795 Y-0.479 Z0.572
X2.802 Y-0.441 Z0.57
X2.793 Y-0.403 Z0.569
X2.769 Y-0.372 Z0.567
X2.736 Y-0.353 Z0.566
X2.697 Y-0.349 Z0.565
X2.66 Y-0.361 Z0.563
X2.631 Y-0.387 Z0.562
X2.615 Y-0.422 Z0.561
X2.614 Y-0.461 Z0.559
X2.628 Y-0.497 Z0.558
X2.656 Y-0.524 Z0.557
X2.692 Y-0.538 Z0.555
X2.731 Y-0.536 Z0.554
X2.766 Y-0.519 Z0.552
X2.791 Y-0.489 Z0.551
X2.802 Y-0.452 Z0.55
X2.797 Y-0.413 Z0.548
X2.777 Y-0.38 Z0.547
X2.746 Y-0.357 Z0.546
X2.708 Y-0.349 Z0.544
X2.67 Y-0.356 Z0.543
X2.638 Y-0.378 Z0.542
X2.618 Y-0.411 Z0.54
X2.612 Y-0.45 Z0.539
X2.623 Y-0.487 Z0.537
X2.647 Y-0.517 Z0.536
X2.681 Y-0.535 Z0.535
X2.72 Y-0.538 Z0.533
X2.757 Y-0.525 Z0.532
X2.785 Y-0.498 Z0.531
X2.8 Y-0.463 Z0.529
Y-0.424 Z0.528
X2.784 Y-0.388 Z0.526
X2.756 Y-0.362 Z0.525
X2.719 Y-0.349 Z0.524
X2.68 Y-0.353 Z0.522
X2.646 Y-0.371 Z0.521
X2.622 Y-0.401 Z0.52
X2.612 Y-0.439 Z0.518
X2.618 Y-0.477 Z0.517
X2.639 Y-0.51 Z0.516
X2.671 Y-0.532 Z0.514
X2.709 Y-0.539 Z0.513
X2.747 Y-0.53 Z0.511
X2.778 Y-0.507 Z0.51
X2.797 Y-0.473 Z0.509
X2.802 Y-0.435 Z0.507
X2.79 Y-0.398 Z0.506
X2.765 Y-0.368 Z0.505
X2.73 Y-0.352 Z0.503
X2.691 Y-0.35 Z0.502
X2.655 Y-0.364 Z0.501
X2.628 Y-0.392 Z0.499
X2.613 Y-0.428 Z0.498
X2.615 Y-0.466 Z0.496
X2.632 Y-0.501 Z0.495
X2.661 Y-0.527 Z0.494
X2.698 Y-0.538 Z0.492
X2.737 Y-0.534 Z0.491
X2.77 Y-0.515 Z0.49
X2.793 Y-0.484 Z0.488
X2.802 Y-0.446 Z0.487
X2.795 Y-0.408 Z0.486
X2.773 Y-0.376 Z0.484
X2.741 Y-0.355 Z0.483
X2.702 Y-0.349 Z0.481
X2.665 Y-0.359 Z0.48
X2.634 Y-0.383 Z0.479
X2.616 Y-0.417 Z0.477
X2.613 Y-0.456 Z0.476
X2.625 Y-0.492 Z0.475
X2.652 Y-0.521 Z0.473
X2.687 Y-0.537 Z0.472
X2.726 Z0.471
X2.762 Y-0.522 Z0.469
X2.788 Y-0.493 Z0.468
X2.801 Y-0.457 Z0.466
X2.799 Y-0.418 Z0.465
X2.781 Y-0.384 Z0.464
X2.751 Y-0.359 Z0.462
X2.713 Y-0.349 Z0.461
X2.675 Y-0.354 Z0.46
X2.642 Y-0.375 Z0.458
X2.62 Y-0.407 Z0.457
X2.612 Y-0.445 Z0.456
X2.62 Y-0.482 Z0.454
X2.643 Y-0.514 Z0.453
X2.676 Y-0.534 Z0.451
X2.715 Y-0.538 Z0.45
X2.752 Y-0.527 Z0.449
X2.782 Y-0.502 Z0.447
X2.799 Y-0.468 Z0.446
X2.801 Y-0.429 Z0.445
X2.787 Y-0.393 Z0.443
X2.76 Y-0.365 Z0.442
X2.724 Y-0.35 Z0.441
X2.685 Y-0.351 Z0.439
X2.65 Y-0.368 Z0.438
X2.625 Y-0.397 Z0.436
X2.613 Y-0.434 Z0.435
X2.616 Y-0.472 Z0.434
X2.635 Y-0.506 Z0.432
X2.666 Y-0.529 Z0.431
X2.704 Y-0.539 Z0.43
X2.742 Y-0.532 Z0.428
X2.774 Y-0.511 Z0.427
X2.796 Y-0.478 Z0.426
X2.802 Y-0.44 Z0.424
X2.793 Y-0.402 Z0.423
X2.769 Y-0.372 Z0.421
X2.735 Y-0.353 Z0.42
X2.696 Y-0.349 Z0.419
X2.66 Y-0.361 Z0.417
X2.631 Y-0.387 Z0.416
X2.614 Y-0.423 Z0.415
Y-0.461 Z0.413
X2.629 Y-0.497 Z0.412
X2.656 Y-0.524 Z0.411
X2.693 Y-0.538 Z0.409
X2.732 Y-0.536 Z0.408
X2.766 Y-0.518 Z0.406
X2.791 Y-0.488 Z0.405
X2.802 Y-0.451 Z0.404
X2.797 Y-0.413 Z0.402
X2.777 Y-0.379 Z0.401
X2.745 Y-0.357 Z0.4
X2.707 Y-0.349 Z0.398
X2.669 Y-0.357 Z0.397
X2.638 Y-0.379 Z0.396
X2.618 Y-0.412 Z0.394
X2.612 Y-0.45 Z0.393
X2.623 Y-0.488 Z0.391
X2.647 Y-0.518 Z0.39
X2.682 Y-0.535 Z0.389
X2.721 Y-0.538 Z0.387
X2.757 Y-0.524 Z0.386
X2.785 Y-0.498 Z0.385
X2.8 Y-0.462 Z0.383
Y-0.423 Z0.382
X2.784 Y-0.388 Z0.381
X2.755 Y-0.362 Z0.379
X2.718 Y-0.349 Z0.378
X2.68 Y-0.353 Z0.376
X2.646 Y-0.371 Z0.375
X2.622 Y-0.402 Z0.374
X2.612 Y-0.439 Z0.372
X2.618 Y-0.478 Z0.371
X2.639 Y-0.51 Z0.37
X2.672 Y-0.532 Z0.368
X2.71 Y-0.539 Z0.367
X2.747 Y-0.53 Z0.366
X2.778 Y-0.506 Z0.364
X2.798 Y-0.473 Z0.363
X2.802 Y-0.434 Z0.361
X2.79 Y-0.397 Z0.36
X2.764 Y-0.368 Z0.359
X2.729 Y-0.351 Z0.357
X2.691 Y-0.35 Z0.356
X2.655 Y-0.365 Z0.355
X2.627 Y-0.392 Z0.353
X2.613 Y-0.428 Z0.352
X2.615 Y-0.467 Z0.351
X2.632 Y-0.502 Z0.349
X2.662 Y-0.527 Z0.348
X2.699 Y-0.538 Z0.346
X2.737 Y-0.534 Z0.345
X2.771 Y-0.514 Z0.344
X2.794 Y-0.483 Z0.342
X2.802 Y-0.445 Z0.341
X2.795 Y-0.407 Z0.34
X2.773 Y-0.375 Z0.338
X2.74 Y-0.355 Z0.337
X2.702 Y-0.349 Z0.336
X2.664 Y-0.359 Z0.334
X2.634 Y-0.383 Z0.333
X2.616 Y-0.418 Z0.331
X2.613 Y-0.456 Z0.33
X2.626 Y-0.493 Z0.329
X2.652 Y-0.521 Z0.327
X2.688 Y-0.537 Z0.326
X2.727 Z0.325
X2.762 Y-0.521 Z0.323
X2.788 Y-0.493 Z0.322
X2.801 Y-0.456 Z0.321
X2.798 Y-0.418 Z0.319
X2.78 Y-0.383 Z0.318
X2.75 Y-0.359 Z0.316
X2.713 Y-0.349 Z0.315
X2.674 Y-0.355 Z0.314
X2.641 Y-0.375 Z0.312
X2.619 Y-0.407 Z0.311
X2.612 Y-0.445 Z0.31
X2.621 Y-0.483 Z0.308
X2.644 Y-0.514 Z0.307
X2.677 Y-0.534 Z0.306
X2.716 Y-0.538 Z0.304
X2.753 Y-0.527 Z0.303
X2.782 Y-0.502 Z0.301
X2.799 Y-0.467 Z0.3
X2.801 Y-0.428 Z0.299
X2.787 Y-0.392 Z0.297
X2.76 Y-0.365 Z0.296
X2.724 Y-0.35 Z0.295
X2.685 Y-0.351 Z0.293
X2.65 Y-0.368 Z0.292
X2.624 Y-0.397 Z0.291
X2.613 Y-0.434 Z0.289
X2.617 Y-0.473 Z0.288
X2.636 Y-0.506 Z0.286
X2.667 Y-0.53 Z0.285
X2.705 Y-0.539 Z0.284
X2.743 Y-0.532 Z0.282
X2.775 Y-0.51 Z0.281
X2.796 Y-0.478 Z0.28
X2.802 Y-0.439 Z0.278
X2.792 Y-0.402 Z0.277
X2.768 Y-0.371 Z0.276
X2.734 Y-0.353 Z0.274
X2.696 Y-0.349 Z0.273
X2.659 Y-0.362 Z0.271
X2.63 Y-0.388 Z0.27
X2.614 Y-0.423 Z0.269
Y-0.462 Z0.267
X2.629 Y-0.498 Z0.266
X2.657 Y-0.524 Z0.265
X2.693 Y-0.538 Z0.263
X2.732 Y-0.535 Z0.262
X2.767 Y-0.518 Z0.261
X2.791 Y-0.488 Z0.259
X2.802 Y-0.45 Z0.258
X2.797 Y-0.412 Z0.256
X2.776 Y-0.379 Z0.255
X2.745 Y-0.357 Z0.254
X2.707 Y-0.349 Z0.252
X2.669 Y-0.357 Z0.251
X2.637 Y-0.379 Z0.25
X2.617 Y-0.413 Z0.248
X2.612 Y-0.451 Z0.247
X2.623 Y-0.488 Z0.246
X2.648 Y-0.518 Z0.244
X2.683 Y-0.536 Z0.243
X2.721 Y-0.538 Z0.241
X2.758 Y-0.524 Z0.24
X2.786 Y-0.497 Z0.239
X2.8 Y-0.461 Z0.237
Y-0.423 Z0.236
X2.784 Y-0.387 Z0.235
X2.755 Y-0.361 Z0.233
X2.718 Y-0.349 Z0.232
X2.679 Y-0.353 Z0.231
X2.645 Y-0.372 Z0.229
X2.622 Y-0.402 Z0.228
X2.612 Y-0.44 Z0.226
X2.619 Y-0.478 Z0.225
X2.64 Y-0.511 Z0.224
X2.672 Y-0.532 Z0.222
X2.71 Y-0.539 Z0.221
X2.748 Y-0.529 Z0.22
X2.779 Y-0.506 Z0.218
X2.798 Y-0.472 Z0.217
X2.802 Y-0.433 Z0.216
X2.79 Y-0.397 Z0.214
X2.764 Y-0.368 Z0.213
X2.729 Y-0.351 Z0.211
X2.69 Y-0.35 Z0.21
X2.654 Y-0.365 Z0.209
X2.627 Y-0.393 Z0.207
X2.613 Y-0.429 Z0.206
X2.615 Y-0.468 Z0.205
X2.632 Y-0.502 Z0.203
X2.662 Y-0.527 Z0.202
X2.699 Y-0.538 Z0.201
X2.738 Y-0.534 Z0.199
X2.771 Y-0.514 Z0.198
X2.794 Y-0.482 Z0.196
X2.802 Y-0.445 Z0.195
X2.795 Y-0.407 Z0.194
X2.772 Y-0.375 Z0.192
X2.739 Y-0.354 Z0.191
X2.701 Y-0.349 Z0.19
X2.664 Y-0.359 Z0.188
X2.633 Y-0.384 Z0.187
X2.616 Y-0.418 Z0.186
X2.613 Y-0.457 Z0.184
X2.626 Y-0.493 Z0.183
X2.653 Y-0.522 Z0.181
X2.688 Y-0.537 Z0.18
X2.727 Z0.179
X2.763 Y-0.521 Z0.177
X2.789 Y-0.492 Z0.176
X2.801 Y-0.456 Z0.175
X2.798 Y-0.417 Z0.173
X2.78 Y-0.383 Z0.172
X2.749 Y-0.359 Z0.171
X2.712 Y-0.349 Z0.169
X2.674 Y-0.355 Z0.168
X2.641 Y-0.376 Z0.166
X2.619 Y-0.408 Z0.165
X2.612 Y-0.446 Z0.164
X2.621 Y-0.484 Z0.162
X2.644 Y-0.515 Z0.161
X2.678 Y-0.534 Z0.16
X2.716 Y-0.538 Z0.158
X2.753 Y-0.527 Z0.157
X2.783 Y-0.501 Z0.156
X2.799 Y-0.466 Z0.154
X2.801 Y-0.428 Z0.153
X2.787 Y-0.392 Z0.151
X2.759 Y-0.364 Z0.15
X2.723 Y-0.35 Z0.149
X2.684 Y-0.352 Z0.147
X2.649 Y-0.368 Z0.146
X2.624 Y-0.398 Z0.145
X2.613 Y-0.435 Z0.143
X2.617 Y-0.473 Z0.142
X2.636 Y-0.507 Z0.141
X2.667 Y-0.53 Z0.139
X2.705 Y-0.539 Z0.138
X2.743 Y-0.532 Z0.136
X2.775 Y-0.51 Z0.135
X2.796 Y-0.477 Z0.134
X2.802 Y-0.439 Z0.132
X2.792 Y-0.401 Z0.131
X2.768 Y-0.371 Z0.13
X2.734 Y-0.353 Z0.128
X2.695 Y-0.349 Z0.127
X2.658 Y-0.362 Z0.126
X2.63 Y-0.388 Z0.124
X2.614 Y-0.424 Z0.123
Y-0.463 Z0.121
X2.629 Y-0.498 Z0.12
X2.658 Y-0.525 Z0.119
X2.694 Y-0.538 Z0.117
X2.733 Y-0.535 Z0.116
X2.767 Y-0.517 Z0.115
X2.792 Y-0.487 Z0.113
X2.802 Y-0.45 Z0.112
X2.796 Y-0.411 Z0.111
X2.776 Y-0.378 Z0.109
X2.744 Y-0.356 Z0.108
X2.706 Y-0.349 Z0.106
X2.668 Y-0.357 Z0.105
X2.637 Y-0.38 Z0.104
X2.617 Y-0.413 Z0.102
X2.612 Y-0.452 Z0.101
X2.624 Y-0.489 Z0.1
X2.649 Y-0.519 Z0.098
X2.683 Y-0.536 Z0.097
X2.722 Y-0.538 Z0.096
X2.758 Y-0.524 Z0.094
X2.786 Y-0.497 Z0.093
X2.801 Y-0.461 Z0.091
X2.8 Y-0.422 Z0.09
X2.783 Y-0.387 Z0.089
X2.754 Y-0.361 Z0.087
X2.717 Y-0.349 Z0.086
X2.679 Y-0.353 Z0.085
X2.645 Y-0.372 Z0.083
X2.621 Y-0.403 Z0.082
X2.612 Y-0.441 Z0.081
X2.619 Y-0.479 Z0.079
X2.64 Y-0.511 Z0.078
X2.673 Y-0.532 Z0.076
X2.711 Y-0.539 Z0.075
X2.749 Y-0.529 Z0.074
X2.779 Y-0.505 Z0.072
X2.798 Y-0.471 Z0.071
X2.801 Y-0.433 Z0.07
X2.789 Y-0.396 Z0.068
X2.763 Y-0.367 Z0.067
X2.728 Y-0.351 Z0.066
X2.689 Y-0.35 Z0.064
X2.653 Y-0.365 Z0.063
X2.627 Y-0.393 Z0.061
X2.613 Y-0.43 Z0.06
X2.615 Y-0.468 Z0.059
X2.633 Y-0.503 Z0.057
X2.663 Y-0.528 Z0.056
X2.7 Y-0.538 Z0.055
X2.738 Y-0.533 Z0.053
X2.772 Y-0.513 Z0.052
X2.794 Y-0.482 Z0.051
X2.802 Y-0.444 Z0.049
X2.794 Y-0.406 Z0.048
X2.772 Y-0.374 Z0.046
X2.739 Y-0.354 Z0.045
X2.7 Y-0.349 Z0.044
X2.663 Y-0.36 Z0.042
X2.633 Y-0.384 Z0.041
X2.615 Y-0.419 Z0.04
X2.613 Y-0.458 Z0.038
X2.626 Y-0.494 Z0.037
X2.653 Y-0.522 Z0.036
X2.689 Y-0.537 Z0.034
X2.728 Y-0.536 Z0.033
X2.763 Y-0.52 Z0.031
X2.789 Y-0.492 Z0.03
X2.801 Y-0.455 Z0.029
X2.798 Y-0.416 Z0.027
X2.78 Y-0.382 Z0.026
X2.749 Y-0.358 Z0.025
X2.711 Y-0.349 Z0.023
X2.673 Y-0.355 Z0.022
X2.64 Y-0.376 Z0.021
X2.619 Y-0.408 Z0.019
X2.612 Y-0.446 Z0.018
X2.621 Y-0.484 Z0.016
X2.645 Y-0.515 Z0.015
X2.678 Y-0.534 Z0.014
X2.717 Y-0.538 Z0.012
X2.754 Y-0.526 Z0.011
X2.783 Y-0.501 Z0.01
X2.8 Y-0.466 Z0.008
X2.801 Y-0.427 Z0.007
X2.786 Y-0.391 Z0.006
X2.759 Y-0.364 Z0.004
X2.722 Y-0.35 Z0.003
X2.684 Y-0.352 Z0.001
X2.649 Y-0.369 Z0
X2.624 Y-0.398 Z-0.001
X2.612 Y-0.435 Z-0.003
X2.617 Y-0.474 Z-0.004
X2.637 Y-0.507 Z-0.005
X2.668 Y-0.53 Z-0.007
X2.706 Y-0.539 Z-0.008
X2.744 Y-0.531 Z-0.009
X2.776 Y-0.509 Z-0.011
X2.796 Y-0.476 Z-0.012
X2.802 Y-0.438 Z-0.014
X2.792 Y-0.401 Z-0.015
X2.767 Y-0.37 Z-0.016
X2.733 Y-0.352 Z-0.018
X2.694 Y-0.35 Z-0.019
X2.658 Y-0.362 Z-0.02
X2.63 Y-0.389 Z-0.022
X2.614 Y-0.424 Z-0.023
Y-0.463 Z-0.025
X2.63 Y-0.499 Z-0.026
X2.658 Y-0.525 Z-0.027
X2.695 Y-0.538 Z-0.029
X2.733 Y-0.535 Z-0.03
X2.768 Y-0.517 Z-0.031
X2.792 Y-0.487 Z-0.033
X2.802 Y-0.449 Z-0.034
X2.796 Y-0.411 Z-0.035
X2.776 Y-0.378 Z-0.037
X2.744 Y-0.356 Z-0.038
X2.705 Y-0.349 Z-0.04
X2.668 Y-0.357 Z-0.041
X2.636 Y-0.38 Z-0.042
X2.617 Y-0.414 Z-0.044
X2.612 Y-0.452 Z-0.045
X2.624 Y-0.489 Z-0.046
X2.649 Y-0.519 Z-0.048
X2.684 Y-0.536 Z-0.049
X2.723 Y-0.537 Z-0.05
X2.759 Y-0.523 Z-0.052
X2.786 Y-0.496 Z-0.053
X2.801 Y-0.46 Z-0.055
X2.799 Y-0.421 Z-0.056
X2.783 Y-0.386 Z-0.057
X2.754 Y-0.361 Z-0.059
X2.717 Y-0.349 Z-0.06
X2.678 Y-0.353 Z-0.061
X2.644 Y-0.372 Z-0.063
X2.621 Y-0.404 Z-0.064
X2.612 Y-0.441 Z-0.065
X2.619 Y-0.479 Z-0.067
X2.641 Y-0.512 Z-0.068
X2.673 Y-0.533 Z-0.07
X2.712 Y-0.539 Z-0.071
X2.749 Y-0.529 Z-0.072
X2.78 Y-0.505 Z-0.074
X2.798 Y-0.471 Z-0.075
X2.801 Y-0.432 Z-0.076
X2.789 Y-0.395 Z-0.078
X2.763 Y-0.367 Z-0.079
X2.727 Y-0.351 Z-0.08
X2.689 Z-0.082
X2.653 Y-0.366 Z-0.083
X2.626 Y-0.394 Z-0.085
X2.613 Y-0.43 Z-0.086
X2.616 Y-0.469 Z-0.087
X2.633 Y-0.503 Z-0.089
X2.663 Y-0.528 Z-0.09
X2.701 Y-0.539 Z-0.091
X2.739 Y-0.533 Z-0.093
X2.772 Y-0.513 Z-0.094
X2.794 Y-0.481 Z-0.095
X2.802 Y-0.443 Z-0.097
X2.794 Y-0.405 Z-0.098
X2.771 Y-0.374 Z-0.1
X2.738 Y-0.354 Z-0.101
X2.7 Y-0.349 Z-0.102
X2.662 Y-0.36 Z-0.104
X2.633 Y-0.385 Z-0.105
X2.615 Y-0.419 Z-0.106
X2.613 Y-0.458 Z-0.108
X2.627 Y-0.494 Z-0.109
X2.654 Y-0.522 Z-0.11
X2.69 Y-0.537 Z-0.112
X2.728 Y-0.536 Z-0.113
X2.764 Y-0.52 Z-0.115
X2.789 Y-0.491 Z-0.116
X2.802 Y-0.454 Z-0.117
X2.798 Y-0.416 Z-0.119
X2.779 Y-0.382 Z-0.12
X2.748 Y-0.358 Z-0.121
X2.711 Y-0.349 Z-0.123
X2.672 Y-0.355 Z-0.124
X2.64 Y-0.376 Z-0.125
X2.619 Y-0.409 Z-0.127
X2.612 Y-0.447 Z-0.128
X2.621 Y-0.485 Z-0.13
X2.645 Y-0.516 Z-0.131
X2.679 Y-0.534 Z-0.132
X2.718 Y-0.538 Z-0.134
X2.754 Y-0.526 Z-0.135
X2.783 Y-0.5 Z-0.136
X2.8 Y-0.465 Z-0.138
X2.801 Y-0.426 Z-0.139
X2.786 Y-0.391 Z-0.14
X2.758 Y-0.364 Z-0.142
X2.722 Y-0.35 Z-0.143
X2.683 Y-0.352 Z-0.145
X2.648 Y-0.369 Z-0.146
X2.623 Y-0.399 Z-0.147
X2.612 Y-0.436 Z-0.149
X2.617 Y-0.475 Z-0.15
X2.637 Y-0.508 Z-0.151
X2.669 Y-0.531 Z-0.153
X2.706 Y-0.539 Z-0.154
X2.744 Y-0.531 Z-0.155
X2.776 Y-0.509 Z-0.157
X2.797 Y-0.476 Z-0.158
X2.802 Y-0.437 Z-0.16
X2.791 Y-0.4 Z-0.161
X2.767 Y-0.37 Z-0.162
X2.733 Y-0.352 Z-0.164
X2.694 Y-0.35 Z-0.165
X2.657 Y-0.363 Z-0.166
X2.629 Y-0.389 Z-0.168
X2.614 Y-0.425 Z-0.169
Y-0.464 Z-0.17
X2.63 Y-0.499 Z-0.172
X2.659 Y-0.525 Z-0.173
X2.695 Y-0.538 Z-0.175
X2.734 Y-0.535 Z-0.176
X2.768 Y-0.516 Z-0.177
X2.792 Y-0.486 Z-0.179
X2.802 Y-0.448 Z-0.18
X2.796 Y-0.41 Z-0.181
X2.775 Y-0.377 Z-0.183
X2.743 Y-0.356 Z-0.184
X2.705 Y-0.349 Z-0.185
X2.667 Y-0.358 Z-0.187
X2.636 Y-0.381 Z-0.188
X2.617 Y-0.414 Z-0.19
X2.613 Y-0.453 Z-0.191
X2.624 Y-0.49 Z-0.192
X2.65 Y-0.519 Z-0.194
X2.685 Y-0.536 Z-0.195
X2.723 Y-0.537 Z-0.196
X2.759 Y-0.523 Z-0.198
X2.787 Y-0.496 Z-0.199
X2.801 Y-0.459 Z-0.2
X2.799 Y-0.421 Z-0.202
X2.782 Y-0.386 Z-0.203
X2.753 Y-0.361 Z-0.205
X2.716 Y-0.349 Z-0.206
X2.677 Y-0.354 Z-0.207
X2.644 Y-0.373 Z-0.209
X2.621 Y-0.404 Z-0.21
X2.612 Y-0.442 Z-0.211
X2.619 Y-0.48 Z-0.213
X2.641 Y-0.512 Z-0.214
X2.674 Y-0.533 Z-0.215
X2.712 Y-0.539 Z-0.217
X2.75 Y-0.529 Z-0.218
X2.78 Y-0.504 Z-0.22
X2.798 Y-0.47 Z-0.221
X2.801 Y-0.432 Z-0.222
X2.789 Y-0.395 Z-0.224
X2.762 Y-0.366 Z-0.225
X2.727 Y-0.351 Z-0.226
X2.688 Z-0.228
X2.652 Y-0.366 Z-0.229
X2.626 Y-0.394 Z-0.23
X2.613 Y-0.431 Z-0.232
X2.616 Y-0.47 Z-0.233
X2.634 Y-0.504 Z-0.235
X2.664 Y-0.528 Z-0.236
X2.701 Y-0.539 Z-0.237
X2.74 Y-0.533 Z-0.239
X2.773 Y-0.513 Z-0.24
X2.795 Y-0.481 Z-0.241
X2.802 Y-0.443 Z-0.243
X2.794 Y-0.405 Z-0.244
X2.771 Y-0.373 Z-0.245
X2.737 Y-0.354 Z-0.247
X2.699 Y-0.349 Z-0.248
X2.662 Y-0.36 Z-0.25
X2.632 Y-0.385 Z-0.251
X2.615 Y-0.42 Z-0.252
X2.613 Y-0.459 Z-0.254
X2.627 Y-0.495 Z-0.255
X2.654 Y-0.523 Z-0.256
X2.69 Y-0.537 Z-0.258
X2.729 Y-0.536 Z-0.259
X2.764 Y-0.52 Z-0.26
X2.79 Y-0.491 Z-0.262
X2.802 Y-0.454 Z-0.263
X2.798 Y-0.415 Z-0.265
X2.779 Y-0.381 Z-0.266
X2.748 Y-0.358 Z-0.267
X2.71 Y-0.349 Z-0.269
X2.672 Y-0.356 Z-0.27
X2.64 Y-0.377 Z-0.271
X2.618 Y-0.41 Z-0.273
X2.612 Y-0.448 Z-0.274
X2.622 Y-0.485 Z-0.275
X2.645 Y-0.516 Z-0.277
X2.68 Y-0.535 Z-0.278
X2.718 Y-0.538 Z-0.28
X2.755 Y-0.526 Z-0.281
X2.784 Y-0.5 Z-0.282
X2.8 Y-0.465 Z-0.284
Y-0.426 Z-0.285
X2.785 Y-0.39 Z-0.286
X2.757 Y-0.363 Z-0.288
X2.721 Y-0.35 Z-0.289
X2.682 Y-0.352 Z-0.29
X2.648 Y-0.37 Z-0.292
X2.623 Y-0.399 Z-0.293
X2.612 Y-0.437 Z-0.295
X2.617 Y-0.475 Z-0.296
X2.638 Y-0.508 Z-0.297
X2.669 Y-0.531 Z-0.299
X2.707 Y-0.539 Z-0.3
S700
X6.794
X6.808 Y-0.536
X6.819 Y-0.528
X6.826 Y-0.521
X6.836 Y-0.503
X6.834 Y-0.483
X6.821 Y-0.467
X6.801 Y-0.461
X2.699
X2.679 Y-0.467
X2.666 Y-0.483
X2.664 Y-0.503
X2.674 Y-0.521
X2.681 Y-0.528
X2.692 Y-0.536
X2.706 Y-0.539
X2.707
X2.733 Y-0.544
X2.754 Y-0.558
X2.768 Y-0.58
X2.783 Y-0.601
X2.804 Y-0.616
X2.83 Y-0.621
X6.798
X6.826 Y-0.617
X6.852 Y-0.606
X6.875 Y-0.589
X6.966 Y-0.497
X6.983 Y-0.47
X6.986 Y-0.438
X6.973 Y-0.408
X6.949 Y-0.387
X6.917 Y-0.379
X2.583
X2.551 Y-0.387
X2.527 Y-0.408
X2.514 Y-0.438
X2.517 Y-0.47
X2.534 Y-0.497
X2.625 Y-0.589
X2.648 Y-0.606
X2.674 Y-0.617
X2.702 Y-0.621
X2.83
X2.857 Y-0.626
X2.88 Y-0.641
X2.895 Y-0.664
X2.911 Y-0.687
X2.934 Y-0.703
X2.961 Y-0.708
X6.811
X6.854 Y-0.702
X6.893 Y-0.686
X6.927 Y-0.66
X7.118 Y-0.469
X7.141 Y-0.435
X7.148 Y-0.396
X7.141 Y-0.356
X7.118 Y-0.322
X7.085 Y-0.3
X7.045 Y-0.292
X2.455
X2.415 Y-0.3
X2.382 Y-0.322
X2.359 Y-0.356
X2.352 Y-0.396
X2.359 Y-0.435
X2.382 Y-0.469
X2.573 Y-0.66
X2.607 Y-0.686
X2.646 Y-0.702
X2.689 Y-0.708
X2.961
X2.982 Y-0.712
X2.999 Y-0.724
X3.011 Y-0.741
X3.022 Y-0.759
X3.04 Y-0.77
X3.061 Y-0.774
X6.798
X6.849 Y-0.769
X6.898 Y-0.754
X6.944 Y-0.73
X6.983 Y-0.698
X7.338 Y-0.343
X7.354 Y-0.316
X7.357 Y-0.284
X7.345 Y-0.254
X7.32 Y-0.233
X7.289 Y-0.226
X2.211
X2.18 Y-0.233
X2.155 Y-0.254
X2.143 Y-0.284
X2.146 Y-0.316
X2.162 Y-0.343
X2.517 Y-0.698
X2.556 Y-0.73
X2.602 Y-0.754
X2.651 Y-0.769
X2.702 Y-0.774
X3.061
X3.088 Y-0.78
X3.111 Y-0.795
X3.126 Y-0.818
X3.141 Y-0.841
X3.164 Y-0.856
X3.192 Y-0.862
X6.821
X6.878 Y-0.856
X6.933 Y-0.839
X6.984 Y-0.812
X7.029 Y-0.776
X7.49 Y-0.315
X7.512 Y-0.281
X7.52 Y-0.242
X7.512 Y-0.202
X7.49 Y-0.169
X7.456 Y-0.146
X7.416 Y-0.138
X2.084
X2.044 Y-0.146
X2.01 Y-0.169
X1.988 Y-0.202
X1.98 Y-0.242
X1.988 Y-0.281
X2.01 Y-0.315
X2.471 Y-0.776
X2.516 Y-0.812
X2.567 Y-0.839
X2.622 Y-0.856
X2.679 Y-0.862
X3.192
X3.209 Y-0.867
X3.22 Y-0.881
X3.232 Y-0.895
X3.249 Y-0.9
X6.959
X7.759 Y-0.1
X1.741
X2.541 Y-0.9
X3.249
X3.259 Y-0.898 Z-0.297
X3.264 Y-0.893 Z-0.29
X3.266 Y-0.891 Z-0.28
G0 Z7

(2D Adaptive6)
S700 M3
Z15
X4.902 Y-4.46
Z5
Z2.505
G1 X4.894 Y-4.498 Z2.504 F100
X4.901 Y-4.536 Z2.502
X4.922 Y-4.568 Z2.501
X4.955 Y-4.589 Z2.5
X4.993 Y-4.595 Z2.498
X5.031 Y-4.585 Z2.497
X5.061 Y-4.561 Z2.495
X5.08 Y-4.527 Z2.494
X5.083 Y-4.488 Z2.493
X5.07 Y-4.452 Z2.491
X5.044 Y-4.423 Z2.49
X5.009 Y-4.407 Z2.489
X4.97 Z2.487
X4.934 Y-4.422 Z2.486
X4.908 Y-4.45 Z2.485
X4.895 Y-4.487 Z2.483
X4.897 Y-4.525 Z2.482
X4.915 Y-4.56 Z2.48
X4.945 Y-4.584 Z2.479
X4.982 Y-4.595 Z2.478
X5.021 Y-4.589 Z2.476
X5.054 Y-4.569 Z2.475
X5.076 Y-4.537 Z2.474
X5.084 Y-4.499 Z2.472
X5.075 Y-4.462 Z2.471
X5.053 Y-4.43 Z2.47
X5.02 Y-4.41 Z2.468
X4.981 Y-4.405 Z2.467
X4.944 Y-4.416 Z2.465
X4.914 Y-4.441 Z2.464
X4.897 Y-4.476 Z2.463
X4.895 Y-4.514 Z2.461
X4.908 Y-4.551 Z2.46
X4.935 Y-4.579 Z2.459
X4.971 Y-4.593 Z2.457
X5.01 Z2.456
X5.045 Y-4.576 Z2.455
X5.071 Y-4.547 Z2.453
X5.083 Y-4.511 Z2.452
X5.079 Y-4.472 Z2.45
X5.061 Y-4.438 Z2.449
X5.03 Y-4.414 Z2.448
X4.992 Y-4.405 Z2.446
X4.954 Y-4.412 Z2.445
X4.922 Y-4.433 Z2.444
X4.9 Y-4.465 Z2.442
X4.894 Y-4.503 Z2.441
X4.903 Y-4.541 Z2.44
X4.926 Y-4.572 Z2.438
X4.96 Y-4.591 Z2.437
X4.999 Y-4.594 Z2.435
X5.036 Y-4.582 Z2.434
X5.065 Y-4.557 Z2.433
X5.081 Y-4.522 Z2.431
X5.082 Y-4.483 Z2.43
X5.067 Y-4.447 Z2.429
X5.04 Y-4.42 Z2.427
X5.003 Y-4.406 Z2.426
X4.965 Y-4.408 Z2.425
X4.93 Y-4.425 Z2.423
X4.905 Y-4.455 Z2.422
X4.894 Y-4.492 Z2.42
X4.899 Y-4.531 Z2.419
X4.918 Y-4.564 Z2.418
X4.95 Y-4.587 Z2.416
X4.988 Y-4.595 Z2.415
X5.026 Y-4.587 Z2.414
X5.058 Y-4.565 Z2.412
X5.078 Y-4.532 Z2.411
X5.083 Y-4.494 Z2.41
X5.073 Y-4.457 Z2.408
X5.049 Y-4.426 Z2.407
X5.014 Y-4.409 Z2.405
X4.976 Y-4.406 Z2.404
X4.939 Y-4.419 Z2.403
X4.911 Y-4.445 Z2.401
X4.895 Y-4.481 Z2.4
X4.896 Y-4.52 Z2.399
X4.911 Y-4.555 Z2.397
X4.94 Y-4.582 Z2.396
X4.977 Y-4.594 Z2.395
X5.015 Y-4.591 Z2.393
X5.049 Y-4.573 Z2.392
X5.074 Y-4.543 Z2.39
X5.083 Y-4.505 Z2.389
X5.078 Y-4.467 Z2.388
X5.057 Y-4.434 Z2.386
X5.025 Y-4.412 Z2.385
X4.987 Y-4.405 Z2.384
X4.949 Y-4.414 Z2.382
X4.918 Y-4.437 Z2.381
X4.898 Y-4.47 Z2.38
X4.894 Y-4.509 Z2.378
X4.905 Y-4.546 Z2.377
X4.931 Y-4.575 Z2.375
X4.966 Y-4.592 Z2.374
X5.004 Y-4.594 Z2.373
X5.04 Y-4.58 Z2.371
X5.068 Y-4.552 Z2.37
X5.082 Y-4.516 Z2.369
X5.081 Y-4.477 Z2.367
X5.064 Y-4.442 Z2.366
X5.035 Y-4.417 Z2.365
X4.998 Y-4.405 Z2.363
X4.959 Y-4.41 Z2.362
X4.926 Y-4.429 Z2.36
X4.902 Y-4.46 Z2.359
X4.894 Y-4.498 Z2.358
X4.901 Y-4.536 Z2.356
X4.922 Y-4.568 Z2.355
X4.955 Y-4.589 Z2.354
X4.993 Y-4.595 Z2.352
X5.031 Y-4.585 Z2.351
X5.061 Y-4.561 Z2.35
X5.08 Y-4.527 Z2.348
X5.083 Y-4.488 Z2.347
X5.07 Y-4.452 Z2.345
X5.044 Y-4.423 Z2.344
X5.009 Y-4.407 Z2.343
X4.97 Z2.341
X4.934 Y-4.422 Z2.34
X4.908 Y-4.45 Z2.339
X4.895 Y-4.487 Z2.337
X4.897 Y-4.525 Z2.336
X4.915 Y-4.56 Z2.335
X4.945 Y-4.584 Z2.333
X4.982 Y-4.595 Z2.332
X5.021 Y-4.589 Z2.33
X5.054 Y-4.569 Z2.329
X5.076 Y-4.537 Z2.328
X5.084 Y-4.499 Z2.326
X5.075 Y-4.462 Z2.325
X5.053 Y-4.43 Z2.324
X5.02 Y-4.41 Z2.322
X4.981 Y-4.405 Z2.321
X4.944 Y-4.416 Z2.32
X4.914 Y-4.441 Z2.318
X4.897 Y-4.476 Z2.317
X4.895 Y-4.514 Z2.315
X4.908 Y-4.551 Z2.314
X4.935 Y-4.579 Z2.313
X4.971 Y-4.593 Z2.311
